itstorque/QPG-NV-centers/QPG-ChipDesign/hyperfine/csv_join/jul8_sweep_omega_100.csv
,Unnamed: 0,Unnamed: 0.1,final_pops,pops,T,LR,loss,I,Q,OPT_STEPS,distance,loss_hist,iter_step,STEPS,purity,fft:I,fft:Q,guess:I,guess:Q,guess:loss,pulse_loss_hist,target_loss_hist,final_pops2,pops2,purity2,final_pops3,pops3,purity3,final_pops4,pops4,purity4,final_pops5,pops5,purity5,final_pops6,pops6,purity6,data,odmra,odmrb,odmr_domain,odmra1,odmra2,odmra3,units,data:qubits,data:target_qubits,data:T,data:d,data:steps,data:FFT,data:fft_window,data:REG_PULSE,data:MAX_SLOPE,data:GUESS_OPT_STEPS,data:GUESS_SIZE,data:T2,data:METHOD,data:diff_factor,data:diff_target,data:LR,data:OPT_LIM,data:OPT_STEPS,data:plot_res,data:CUSTOM_splitting,data:CUSTOM_fine_splitting,data:CUSTOM_ground_splitting,data:omega_drive,data:CUSTOM_n,data:CUSTOM_pulse_reg,data:CUSTOM_B,mar_sim_type,Optimization Type,Initial Conditions,Number of Oscillations,mar12_loss
0,1,0,0.4840150348672687,"[1.00073249e-11 9.42788516e-04 7.00707544e-03 2.29098111e-02
 5.14456176e-02 9.25649110e-02 1.43670455e-01 2.00636550e-01
 2.58991614e-01 3.14839320e-01 3.65350240e-01 4.08858595e-01
 4.44707489e-01 4.72989674e-01 4.94281947e-01 5.09431170e-01
 5.19394742e-01 5.25141856e-01 5.27587124e-01 5.27559437e-01
 5.25780593e-01 5.22862031e-01 5.19302850e-01 5.15497199e-01
 5.11742304e-01 5.08249405e-01 5.05157387e-01 5.02543087e-01
 5.00437212e-01 4.98831393e-01 4.97693869e-01 4.96972343e-01
 4.96607852e-01 4.96533861e-01 4.96687579e-01 4.97006418e-01
 4.97436659e-01 4.97928494e-01 4.98442374e-01 4.98943576e-01
 4.99406836e-01 4.99811002e-01 5.00142633e-01 5.00390983e-01
 5.00551191e-01 5.00619598e-01 5.00597070e-01 5.00484474e-01
 5.00286558e-01 5.00007336e-01 4.99654801e-01 4.99235995e-01
 4.98762633e-01 4.98245724e-01 4.97701963e-01 4.97147911e-01
 4.96606782e-01 4.96102287e-01 4.95665268e-01 4.95327406e-01
 4.95126987e-01 4.95102725e-01 4.95297926e-01 4.95754634e-01
 4.96515613e-01 4.97618922e-01 4.99097475e-01 5.00974117e-01
 5.03258916e-01 5.05944958e-01 5.09004028e-01 5.12383638e-01
 5.16002382e-01 5.19748920e-01 5.23479643e-01 5.27019112e-01
 5.30165748e-01 5.32689066e-01 5.34354108e-01 5.34904068e-01
 5.34116663e-01 5.31763204e-01 5.27691766e-01 5.21783588e-01
 5.14031477e-01 5.04525761e-01 4.93516070e-01 4.81427792e-01
 4.68909222e-01 4.56838931e-01 4.46312542e-01 4.38543525e-01
 4.34689802e-01 4.35571561e-01 4.41367896e-01 4.51341005e-01
 4.63734065e-01 4.75812183e-01 4.84017074e-01 4.84015035e-01]",0.5,1.0,2.5899847908135056,"[ 2.43365817e-03 -1.97894189e+01 -3.32833112e+01 -4.14192319e+01
 -4.51789849e+01 -4.54946335e+01 -4.32838149e+01 -3.93444279e+01
 -3.43952170e+01 -2.89952814e+01 -2.36022909e+01 -1.85196487e+01
 -1.39693962e+01 -1.00532849e+01 -6.82812514e+00 -4.27021472e+00
 -2.34330565e+00 -9.63951204e-01 -5.83258938e-02  4.72351096e-01
  7.03883497e-01  7.25369024e-01  5.95969412e-01  3.84362291e-01
  1.26677067e-01 -1.30322822e-01 -3.72311359e-01 -5.70919762e-01
 -7.28543809e-01 -8.29832596e-01 -8.87693966e-01 -8.94563930e-01
 -8.68236021e-01 -8.04829422e-01 -7.22839238e-01 -6.19337674e-01
 -5.10998742e-01 -3.94331376e-01 -2.83123883e-01 -1.72710668e-01
 -7.39766382e-02  1.89465962e-02  9.74842649e-02  1.68433620e-01
  2.24679442e-01  2.73587007e-01  3.08635160e-01  3.37449010e-01
  3.53371014e-01  3.64097862e-01  3.62331666e-01  3.55784899e-01
  3.36298918e-01  3.11667014e-01  2.72957728e-01  2.28225688e-01
  1.68149409e-01  1.01342058e-01  1.87249204e-02 -7.01395112e-02
 -1.73291147e-01 -2.79788507e-01 -3.95855204e-01 -5.08792357e-01
 -6.22544374e-01 -7.22496381e-01 -8.10542406e-01 -8.70507000e-01
 -9.03539286e-01 -8.93162266e-01 -8.42526018e-01 -7.37344353e-01
 -5.87168777e-01 -3.83705222e-01 -1.48974329e-01  1.14734371e-01
  3.65835210e-01  5.87225658e-01  7.11385650e-01  7.03542933e-01
  4.70202505e-01 -4.45487554e-02 -9.44829288e-01 -2.30767239e+00
 -4.22178181e+00 -6.76148265e+00 -9.96931425e+00 -1.38653044e+01
 -1.83972137e+01 -2.34602027e+01 -2.88381512e+01 -3.42233108e+01
 -3.91662215e+01 -4.31013237e+01 -4.53205533e+01 -4.50158020e+01
 -4.12847512e+01 -3.31797684e+01 -1.97363104e+01 -1.03304833e-03]","[-6.94259227e-04 -1.45612281e+01 -2.64086611e+01 -3.54981425e+01
 -4.18510348e+01 -4.56492063e+01 -4.71211428e+01 -4.66045500e+01
 -4.44464167e+01 -4.10438333e+01 -3.67569369e+01 -3.19480749e+01
 -2.69085532e+01 -2.19084989e+01 -1.71351642e+01 -1.27517918e+01
 -8.84461930e+00 -5.48388779e+00 -2.67750411e+00 -4.29156374e-01
  1.30383517e+00  2.55664102e+00  3.39725641e+00  3.87679699e+00
  4.06912831e+00  4.02527813e+00  3.81229253e+00  3.47183753e+00
  3.05760249e+00  2.59813233e+00  2.13196448e+00  1.67458781e+00
  1.25070427e+00  8.64981661e-01  5.31228064e-01  2.46376485e-01
  1.67511192e-02 -1.65399205e-01 -2.98116058e-01 -3.91316343e-01
 -4.44972863e-01 -4.69380668e-01 -4.64804601e-01 -4.40861041e-01
 -3.97199403e-01 -3.42320402e-01 -2.74933400e-01 -2.02452238e-01
 -1.22732949e-01 -4.24432975e-02  4.10758728e-02  1.21384366e-01
  2.01204612e-01  2.73743173e-01  3.41340841e-01  3.96317578e-01
  4.40312544e-01  4.64394216e-01  4.69434953e-01  4.45199348e-01
  3.92132197e-01  2.99118935e-01  1.67083762e-01 -1.49063479e-02
 -2.43819593e-01 -5.28614306e-01 -8.61707239e-01 -1.24759937e+00
 -1.67095057e+00 -2.12889188e+00 -2.59469118e+00 -3.05529811e+00
 -3.46930777e+00 -3.81150779e+00 -4.02445499e+00 -4.07016611e+00
 -3.87840500e+00 -3.39931862e+00 -2.56101809e+00 -1.30428849e+00
  4.23361838e-01  2.68184592e+00  5.48261676e+00  8.85769741e+00
  1.27635180e+01  1.71648670e+01  2.19426620e+01  2.69651853e+01
  3.20147667e+01  3.68502267e+01  4.11506526e+01  4.45810796e+01
  4.67510048e+01  4.72905257e+01  4.58192029e+01  4.20291237e+01
  3.56529902e+01  2.65424060e+01  1.46367399e+01  3.98782518e-03]",1000,1,"[array([3.00003891]), array([3.00891798]), array([3.00053383]), array([3.00280674]), array([2.99982245]), array([3.00121308]), array([2.99573478]), array([2.9900962]), array([2.97471186]), array([2.95542003]), array([2.93065452]), array([2.9033329]), array([2.87758296]), array([2.85458862]), array([2.83179934]), array([2.81022533]), array([2.78996865]), array([2.77124709]), array([2.75297329]), array([2.73635223]), array([2.72170432]), array([2.70935026]), array([2.69806963]), array([2.68850158]), array([2.68067527]), array([2.67426705]), array([2.66819162]), array([2.66281332]), array([2.65863963]), array([2.65530513]), array([2.65159693]), array([2.64833491]), array([2.64614143]), array([2.64399307]), array([2.64132173]), array([2.63950167]), array([2.63806266]), array([2.63672807]), array([2.63508909]), array([2.63400167]), array([2.63290468]), array([2.63211611]), array([2.63131781]), array([2.6306737]), array([2.62982286]), array([2.62878603]), array([2.62859657]), array([2.62856287]), array([2.62762826]), array([2.627198]), array([2.62664859]), array([2.62633564]), array([2.62661505]), array([2.62596281]), array([2.62535343]), array([2.62513943]), array([2.62515321]), array([2.62520997]), array([2.62480828]), array([2.62415076]), array([2.62452674]), array([2.62463895]), array([2.62426677]), array([2.62412195]), array([2.62361309]), array([2.62388767]), array([2.62414541]), array([2.62354059]), array([2.62331851]), array([2.62340532]), array([2.62348566]), array([2.62358124]), array([2.62316297]), array([2.62279275]), array([2.62339655]), array([2.62334779]), array([2.62302527]), array([2.62292734]), array([2.62278433]), array([2.62330982]), array([2.62324335]), array([2.62256691]), array([2.62266531]), array([2.62320925]), array([2.62283379]), array([2.62280718]), array([2.62246216]), array([2.62243522]), array([2.62308813]), array([2.62267914]), array([2.62215776]), array([2.62247136]), array([2.62267862]), array([2.62250256]), array([2.62246981]), array([2.62198227]), array([2.62242307]), array([2.62283162]), array([2.62229563]), array([2.62207152]), array([2.6223374]), array([2.62400762]), array([2.62150319]), array([2.62161186]), array([2.62181225]), array([2.62169435]), array([2.62158982]), array([2.62177573]), array([2.62155196]), array([2.62172696]), array([2.62190908]), array([2.62142066]), array([2.62143818]), array([2.62203618]), array([2.62171268]), array([2.62153788]), array([2.62185348]), array([2.62200796]), array([2.62221404]), array([2.62249544]), array([2.6219966]), array([2.62186531]), array([2.6223894]), array([2.62190083]), array([2.62151377]), array([2.62188618]), array([2.6218708]), array([2.62166416]), array([2.62190998]), array([2.62152868]), array([2.6215604]), array([2.62213396]), array([2.62178568]), array([2.6213865]), array([2.62191157]), array([2.62196243]), array([2.62155892]), array([2.62179736]), array([2.62164562]), array([2.62158429]), array([2.62202079]), array([2.62176098]), array([2.62130283]), array([2.62201918]), array([2.62209789]), array([2.62172313]), array([2.62193195]), array([2.6220433]), array([2.62196273]), array([2.62224749]), array([2.62201141]), array([2.62169239]), array([2.62214846]), array([2.62218622]), array([2.62166176]), array([2.62174305]), array([2.62200178]), array([2.62185839]), array([2.62192271]), array([2.6218597]), array([2.6216113]), array([2.62194377]), array([2.62205018]), array([2.62154246]), array([2.62163544]), array([2.62204126]), array([2.62172827]), array([2.62173686]), array([2.62171519]), array([2.62160364]), array([2.62198508]), array([2.62197492]), array([2.6214591]), array([2.62166045]), array([2.6221604]), array([2.62175964]), array([2.62169311]), array([2.62184246]), array([2.62178598]), array([2.62191765]), array([2.62198827]), array([2.62151334]), array([2.62179123]), array([2.62226664]), array([2.6217912]), array([2.62164852]), array([2.62207091]), array([2.62198178]), array([2.62190828]), array([2.62203977]), array([2.62175417]), array([2.62186609]), array([2.62226348]), array([2.62185578]), array([2.62157778]), array([2.62208034]), array([2.62201085]), array([2.62172811]), array([2.62184604]), array([2.62177715]), array([2.62175395]), array([2.62229173]), array([2.62156911]), array([2.62124027]), array([2.62137076]), array([2.62133409]), array([2.62135922]), array([2.62144398]), array([2.62115728]), array([2.6212633]), array([2.62161659]), array([2.62134277]), array([2.62116223]), array([2.62148631]), array([2.62150242]), array([2.62134794]), array([2.62167425]), array([2.62149681]), array([2.62164669]), array([2.62193392]), array([2.62154966]), array([2.62120358]), array([2.62167771]), array([2.62157841]), array([2.62123991]), array([2.62151195]), array([2.62131579]), array([2.62131198]), array([2.62164845]), array([2.62132515]), array([2.62104833]), array([2.62168162]), array([2.62148482]), array([2.6211732]), array([2.6214478]), array([2.62137006]), array([2.62130874]), array([2.62160274]), array([2.6213085]), array([2.62110881]), array([2.62172314]), array([2.62149237]), array([2.62120422]), array([2.62148419]), array([2.62160989]), array([2.62144901]), array([2.62170827]), array([2.62149655]), array([2.62138299]), array([2.62184192]), array([2.62162924]), array([2.62129389]), array([2.6214954]), array([2.62166636]), array([2.62139701]), array([2.62149302]), array([2.62136988]), array([2.62142168]), array([2.62158505]), array([2.62151926]), array([2.62120101]), array([2.62139661]), array([2.62165174]), array([2.62134689]), array([2.6213104]), array([2.62141827]), array([2.62143498]), array([2.62142359]), array([2.62150157]), array([2.6211876]), array([2.62137846]), array([2.62164939]), array([2.62134712]), array([2.62116492]), array([2.62149105]), array([2.62152926]), array([2.62127872]), array([2.62150802]), array([2.62125593]), array([2.62137806]), array([2.62170709]), array([2.62138515]), array([2.62112976]), array([2.62170618]), array([2.62159833]), array([2.62130418]), array([2.62163949]), array([2.62143909]), array([2.62151576]), array([2.6218093]), array([2.62148929]), array([2.62117954]), array([2.62186354]), array([2.62161869]), array([2.621292]), array([2.62156324]), array([2.6214669]), array([2.62139148]), array([2.62169973]), array([2.62136758]), array([2.62112098]), array([2.62232145]), array([2.62111518]), array([2.62130569]), array([2.62114498]), array([2.62109512]), array([2.62130861]), array([2.62114605]), array([2.62107272]), array([2.62133654]), array([2.62122701]), array([2.62104803]), array([2.62126904]), array([2.62122672]), array([2.62115975]), array([2.62127929]), array([2.62122709]), array([2.62119925]), array([2.62143628]), array([2.62137607]), array([2.62118073]), array([2.62132582]), array([2.62138493]), array([2.62121844]), array([2.62120038]), array([2.62124307]), array([2.6211525]), array([2.62125111]), array([2.62127346]), array([2.62109044]), array([2.62117696]), array([2.62135536]), array([2.62118456]), array([2.62110296]), array([2.62128404]), array([2.62121134]), array([2.62117162]), array([2.62128218]), array([2.62115026]), array([2.6211149]), array([2.62139373]), array([2.62120991]), array([2.62104334]), array([2.62138382]), array([2.62128642]), array([2.6211489]), array([2.62133784]), array([2.62126992]), array([2.62116608]), array([2.62145253]), array([2.62126392]), array([2.62112763]), array([2.6213949]), array([2.6213477]), array([2.62114043]), array([2.62132409]), array([2.62128404]), array([2.62118115]), array([2.62140736]), array([2.62118163]), array([2.62110105]), array([2.62137702]), array([2.62126754]), array([2.62107036]), array([2.62130469]), array([2.62120562]), array([2.62116601]), array([2.62133909]), array([2.62115083]), array([2.6211052]), array([2.62137114]), array([2.62124357]), array([2.62105146]), array([2.62130633]), array([2.62123107]), array([2.62115688]), array([2.62129261]), array([2.62119632]), array([2.62111607]), array([2.62135371]), array([2.62126706]), array([2.62107663]), array([2.62128811]), array([2.62130194]), array([2.62119131]), array([2.62124745]), array([2.62128168]), array([2.6211704]), array([2.62134292]), array([2.62133017]), array([2.62115728]), array([2.62127866]), array([2.62138689]), array([2.6212438]), array([2.62119364]), array([2.62133773]), array([2.62122224]), array([2.62124611]), array([2.62131845]), array([2.6211805]), array([2.62115602]), array([2.62147544]), array([2.6211533]), array([2.62108515]), array([2.62113833]), array([2.62107277]), array([2.62104629]), array([2.62114748]), array([2.62113089]), array([2.62101231]), array([2.62119098]), array([2.62109827]), array([2.62104551]), array([2.6211563]), array([2.62112586]), array([2.6210479]), array([2.6211658]), array([2.62116462]), array([2.62108584]), array([2.62124295]), array([2.62115672]), array([2.62108854]), array([2.62116679]), array([2.62116264]), array([2.62104395]), array([2.62114802]), array([2.62112401]), array([2.6210558]), array([2.6211608]), array([2.62109266]), array([2.62107389]), array([2.62113068]), array([2.62115343]), array([2.6210338]), array([2.62115355]), array([2.62112277]), array([2.6210799]), array([2.62112279]), array([2.62113031]), array([2.62106418]), array([2.6211274]), array([2.62115977]), array([2.62104002]), array([2.6211348]), array([2.62114321]), array([2.62111463]), array([2.62110045]), array([2.6211961]), array([2.62110626]), array([2.62114973]), array([2.62120228]), array([2.62109777]), array([2.62112774]), array([2.62120125]), array([2.62113103]), array([2.62107793]), array([2.62119596]), array([2.62107613]), array([2.6211134]), array([2.6211681]), array([2.62108926]), array([2.62106395]), array([2.62119076]), array([2.62109532]), array([2.62103081]), array([2.62118996]), array([2.62109415]), array([2.62107824]), array([2.62115716]), array([2.62110138]), array([2.6210353]), array([2.62121404]), array([2.62109691]), array([2.62102971]), array([2.62117388]), array([2.62113921]), array([2.62105491]), array([2.62113775]), array([2.62113777]), array([2.62104272]), array([2.62119289]), array([2.62110887]), array([2.62105247]), array([2.62115985]), array([2.62116482]), array([2.62105676]), array([2.62114341]), array([2.62115127]), array([2.62109188]), array([2.62118702]), array([2.62112776]), array([2.62109243]), array([2.62116052]), array([2.62119874]), array([2.62107579]), array([2.6211468]), array([2.62115949]), array([2.62111142]), array([2.62114263]), array([2.62112762]), array([2.62109033]), array([2.62131079]), array([2.62103656]), array([2.62102978]), array([2.62108446]), array([2.62100493]), array([2.62105005]), array([2.62106272]), array([2.62102011]), array([2.62104025]), array([2.62107251]), array([2.62102833]), array([2.6210189]), array([2.62108224]), array([2.62101999]), array([2.62105373]), array([2.62107073]), array([2.62104067]), array([2.62104588]), array([2.62111921]), array([2.62105321]), array([2.62103306]), array([2.62108525]), array([2.62104736]), array([2.62103676]), array([2.62105552]), array([2.62105106]), array([2.62101583]), array([2.62108904]), array([2.62103276]), array([2.62102978]), array([2.62106505]), array([2.62106016]), array([2.62102058]), array([2.62105992]), array([2.62105298]), array([2.62102379]), array([2.62107578]), array([2.62103594]), array([2.62103166]), array([2.62105009]), array([2.62107689]), array([2.62101024]), array([2.62106885]), array([2.6210605]), array([2.62102714]), array([2.62106644]), array([2.62106453]), array([2.62103285]), array([2.62107345]), array([2.62109321]), array([2.62102424]), array([2.62107586]), array([2.62107185]), array([2.62105191]), array([2.62105182]), array([2.62107611]), array([2.6210263]), array([2.62106246]), array([2.62108123]), array([2.62100662]), array([2.62105704]), array([2.62107154]), array([2.62103884]), array([2.62103985]), array([2.62107728]), array([2.62101139]), array([2.62106732]), array([2.62106834]), array([2.62101369]), array([2.62104875]), array([2.62108012]), array([2.62102621]), array([2.62102655]), array([2.62108625]), array([2.62101337]), array([2.62106557]), array([2.62106595]), array([2.62102659]), array([2.62104073]), array([2.62108221]), array([2.62102896]), array([2.62103396]), array([2.62107673]), array([2.62103216]), array([2.62105573]), array([2.62105565]), array([2.62105478]), array([2.62103234]), array([2.62109233]), array([2.62103864]), array([2.62105205]), array([2.62106898]), array([2.62106539]), array([2.62104958]), array([2.62106135]), array([2.62106645]), array([2.62104068]), array([2.62108083]), array([2.6210483]), array([2.62105275]), array([2.62109629]), array([2.62100043]), array([2.6209686]), array([2.6210203]), array([2.62102571]), array([2.62098134]), array([2.62102719]), array([2.62098247]), array([2.62099679]), array([2.62104677]), array([2.62100264]), array([2.62095326]), array([2.62105009]), array([2.62102133]), array([2.62097838]), array([2.6210267]), array([2.62100185]), array([2.62100815]), array([2.62105444]), array([2.6210051]), array([2.62095692]), array([2.62106091]), array([2.62102233]), array([2.62097418]), array([2.6210242]), array([2.62100623]), array([2.62099577]), array([2.62104696]), array([2.62099562]), array([2.62096267]), array([2.62106066]), array([2.62101901]), array([2.62097073]), array([2.621013]), array([2.6210243]), array([2.62099569]), array([2.62103365]), array([2.62099507]), array([2.62097303]), array([2.62105167]), array([2.6210215]), array([2.62097335]), array([2.62100984]), array([2.62103427]), array([2.62099911]), array([2.62101732]), array([2.62099943]), array([2.6210041]), array([2.62103618]), array([2.62102752]), array([2.62097888]), array([2.62100865]), array([2.62105123]), array([2.62100124]), array([2.62099466]), array([2.62101318]), array([2.62101479]), array([2.62101163]), array([2.62102576]), array([2.62097677]), array([2.62100288]), array([2.62105008]), array([2.62100327]), array([2.62097231]), array([2.62102804]), array([2.62102465]), array([2.62098988]), array([2.62103102]), array([2.62098619]), array([2.62099728]), array([2.62105226]), array([2.62100531]), array([2.62095871]), array([2.621041]), array([2.62102754]), array([2.62097979]), array([2.62102926]), array([2.62100174]), array([2.62099398]), array([2.62105041]), array([2.62100208]), array([2.62095874]), array([2.62104872]), array([2.6210289]), array([2.62098041]), array([2.62102488]), array([2.62100336]), array([2.62100227]), array([2.62104868]), array([2.62100013]), array([2.62096695]), array([2.62105726]), array([2.6210288]), array([2.62098051]), array([2.62101276]), array([2.62102599]), array([2.62100219]), array([2.62103393]), array([2.62100061]), array([2.62097981]), array([2.62111208]), array([2.62095914]), array([2.62099424]), array([2.62098623]), array([2.62097091]), array([2.62098992]), array([2.62097425]), array([2.62096766]), array([2.62100109]), array([2.62099218]), array([2.62096366]), array([2.62097696]), array([2.62100111]), array([2.62097939]), array([2.62097886]), array([2.62097993]), array([2.6209829]), array([2.62098989]), array([2.62099953]), array([2.62097084]), array([2.62097452]), array([2.6210158]), array([2.620983]), array([2.62096488]), array([2.62098891]), array([2.62099295]), array([2.62097807]), array([2.62099788]), array([2.62096565]), array([2.6209753]), array([2.62101171]), array([2.62098274]), array([2.62095828]), array([2.62099453]), array([2.62099792]), array([2.62097003]), array([2.6209965]), array([2.62096893]), array([2.62097718]), array([2.6210124]), array([2.62098112]), array([2.62094997]), array([2.62100722]), array([2.62099598]), array([2.62096565]), array([2.62099664]), array([2.62097413]), array([2.62098084]), array([2.62100866]), array([2.62098109]), array([2.62095049]), array([2.62101669]), array([2.62099745]), array([2.6209682]), array([2.62099197]), array([2.62098703]), array([2.62098313]), array([2.62100336]), array([2.62098162]), array([2.62095619]), array([2.6210116]), array([2.62099534]), array([2.62096486]), array([2.62098073]), array([2.62099729]), array([2.62097902]), array([2.62099322]), array([2.6209787]), array([2.62096445]), array([2.62100507]), array([2.62099569]), array([2.62096532]), array([2.62097498]), array([2.62100387]), array([2.62098138]), array([2.62098267]), array([2.62098072]), array([2.62097724]), array([2.62099306]), array([2.62099736]), array([2.62096689]), array([2.62096836]), array([2.62101577]), array([2.62098051]), array([2.62097295]), array([2.62098029]), array([2.62099153]), array([2.62098519]), array([2.62099877]), array([2.62096613]), array([2.62097186]), array([2.62101351]), array([2.62098459]), array([2.62096684]), array([2.62098569]), array([2.62099823]), array([2.62097998]), array([2.62099799]), array([2.62096867]), array([2.62098123]), array([2.62100716]), array([2.62096385]), array([2.62096038]), array([2.62097311]), array([2.6209684]), array([2.62096796]), array([2.6209703]), array([2.62095514]), array([2.62097447]), array([2.62098036]), array([2.62096127]), array([2.62095503]), array([2.62098305]), array([2.62096976]), array([2.62096333]), array([2.62097092]), array([2.62096201]), array([2.62097157]), array([2.62098031]), array([2.62096251]), array([2.62095132]), array([2.62098833]), array([2.62097212]), array([2.62095944]), array([2.62097113]), array([2.62097007]), array([2.62096683]), array([2.62098081]), array([2.6209626]), array([2.62095252]), array([2.62098999]), array([2.62097319]), array([2.62095515]), array([2.62097]), array([2.62097999]), array([2.62096257]), array([2.62097989]), array([2.62096106]), array([2.62096081]), array([2.62098553]), array([2.62097174]), array([2.62095213]), array([2.62097084]), array([2.62098084]), array([2.62096264]), array([2.62097462]), array([2.62096236]), array([2.62096662]), array([2.62098099]), array([2.62097146]), array([2.62095185]), array([2.62097412]), array([2.6209807]), array([2.620962]), array([2.62096894]), array([2.62096321]), array([2.62097258]), array([2.62097672]), array([2.62097151]), array([2.62095194]), array([2.62097714]), array([2.62098094]), array([2.62096224]), array([2.62096207]), array([2.62097286]), array([2.62097237]), array([2.62097009]), array([2.62097274]), array([2.62095304]), array([2.6209779]), array([2.62098187]), array([2.62096308]), array([2.6209546]), array([2.62098427]), array([2.62097162]), array([2.62096384]), array([2.62097215]), array([2.62096114]), array([2.62097152]), array([2.62098368]), array([2.62096343]), array([2.62095001]), array([2.62098938]), array([2.62097343]), array([2.62095863]), array([2.62097172]), array([2.62096914]), array([2.62096597]), array([2.6209827]), array([2.62096344]), array([2.62094677]), array([2.62099297]), array([2.62097437]), array([2.62095473]), array([2.62097386]), array([2.62097286]), array([2.62096386]), array([2.62098169]), array([2.62096332]), array([2.62095299]), array([2.62099859]), array([2.62095593]), array([2.62096385]), array([2.62095311]), array([2.6209572]), array([2.62096762]), array([2.6209586]), array([2.62094704]), array([2.62096606]), array([2.62096448]), array([2.62095336]), array([2.62095882]), array([2.6209579]), array([2.62095959]), array([2.62096353]), array([2.62096016]), array([2.62094802]), array([2.62096665]), array([2.62096587]), array([2.62095433]), array([2.62095358]), array([2.6209657]), array([2.62096054]), array([2.62095831]), array([2.62096074]), array([2.62095247]), array([2.62096263]), array([2.62096753]), array([2.6209556]), array([2.62094866]), array([2.620971]), array([2.62096129]), array([2.62095298]), array([2.62096121]), array([2.62095913]), array([2.62095719]), array([2.62096795]), array([2.62095592]), array([2.62094565]), array([2.62097487]), array([2.62096205]), array([2.62095029]), array([2.62096248]), array([2.62096257]), array([2.62095603]), array([2.6209674]), array([2.62095471]), array([2.62094957]), array([2.62097444]), array([2.6209603]), array([2.62094884]), array([2.62096098]), array([2.6209676]), array([2.62095512]), array([2.62096559]), array([2.62095416]), array([2.62095466]), array([2.62097149]), array([2.62095998]), array([2.6209476]), array([2.62096438]), array([2.62096586]), array([2.62095405]), array([2.62096462]), array([2.62095326]), array([2.62095923]), array([2.620969]), array([2.62095932]), array([2.62094701]), array([2.62096728]), array([2.6209654]), array([2.62095364]), array([2.62096019]), array([2.62095707]), array([2.62096014]), array([2.62096542]), array([2.62096041]), array([2.62094801]), array([2.62096627]), array([2.62096627]), array([2.62095445]), array([2.62095526]), array([2.6209629]), array([2.62096081]), array([2.62096009]), array([2.62096099]), array([2.62095056]), array([2.62096411]), array([2.62096747]), array([2.62095556]), array([2.62094996]), array([2.62096878]), array([2.62096171]), array([2.62095447]), array([2.62096177]), array([2.62095587]), array([2.62095994]), array([2.62096857]), array([2.62095593]), array([2.62094639]), array([2.62097493]), array([2.62095494]), array([2.62095042]), array([2.62095612]), array([2.62095348]), array([2.62094938]), array([2.62095549]), array([2.6209547]), array([2.62094824]), array([2.62095847]), array([2.62095327]), array([2.62094836]), array([2.62095644]), array([2.62095653]), array([2.62094905]), array([2.6209545]), array([2.62095479]), array([2.62095077]), array([2.62095776]), array([2.62095247]), array([2.62094877]), array([2.62095705]), array([2.62095636]), array([2.6209489]), array([2.62095415]), array([2.62095446]), array([2.62095295]), array([2.62095591]), array([2.62095267]), array([2.62094987]), array([2.62095704]), array([2.62095655]), array([2.62094901]), array([2.62095294]), array([2.62095638]), array([2.62095307]), array([2.62095319]), array([2.62095332]), array([2.62095125]), array([2.62095584]), array([2.62095713]), array([2.62094949]), array([2.62095087]), array([2.62095883]), array([2.62095346]), array([2.62095005]), array([2.62095565]), array([2.62095227]), array([2.6209539]), array([2.62095735]), array([2.62094968]), array([2.62095088]), array([2.62096029]), array([2.62095306]), array([2.62094807]), array([2.62095717]), array([2.62095441]), array([2.62095171]), array([2.6209567]), array([2.62095093]), array([2.62094941]), array([2.62096094]), array([2.62095366]), array([2.6209467]), array([2.6209581]), array([2.62095541]), array([2.62094981]), array([2.62095661]), array([2.6209525]), array([2.62094948]), array([2.62096067]), array([2.6209531]), array([2.62094636]), array([2.62095751]), array([2.62095768]), array([2.62094947]), array([2.62095541]), array([2.62095283]), array([2.62095182]), array([2.62095829]), array([2.62095337]), array([2.62094729]), array([2.62095739]), array([2.62095723]), array([2.62094965]), array([2.62095323]), array([2.62095487]), array([2.62095293]), array([2.62095623]), array([2.62095297]), array([2.62094904]), array([2.62095703]), array([2.62095699]), array([2.62094945]), array([2.62095177]), array([2.62095621]), array([2.62095372]), array([2.62095399]), array([2.62095367])]","range(0, 1100)",100,[],,,"[ 0.         -0.2070327   0.05950073 -0.05054574 -0.15808863 -0.17388961
 -0.0949394   0.11411307 -0.09959592  0.11862777 -0.05163012 -0.0518094
  0.03855491 -0.00298119 -0.04825589 -0.00804235 -0.08006528  0.05085755
 -0.04280204  0.15608769 -0.00469943  0.0462069   0.07155687 -0.09092731
 -0.06043002 -0.2370804   0.00084911  0.07500253  0.07502096  0.00458348
  0.01285241 -0.00888994 -0.05067999 -0.01288163  0.08387337 -0.18105934
  0.17420483  0.12408805 -0.01509545  0.01320738 -0.14264791  0.10298644
  0.13928391 -0.0479134  -0.06362542  0.04115147  0.09542473 -0.11880891
  0.07713654 -0.14004709 -0.07021505 -0.1048018   0.10591788 -0.15755031
  0.04026373  0.09200945 -0.10238644  0.17817813 -0.24276787 -0.1350963
  0.06433655  0.02224745 -0.08931118  0.05167349 -0.1047685  -0.04230993
  0.05754151  0.06174873  0.01000386  0.26031267 -0.03444193 -0.03140229
  0.05955689  0.00398249 -0.00267637 -0.07835667  0.0527599  -0.04258745
 -0.05813686  0.01797208 -0.0028048   0.08385352 -0.07776136  0.0807739
  0.02517673 -0.09204471  0.01243803  0.1824516  -0.11793749 -0.07893469
 -0.01638682  0.06684018 -0.02735973 -0.13794463 -0.15000182 -0.11735145
  0.13535112 -0.11127253 -0.02625987  0.        ]","[ 0.         -0.07293598 -0.04676881  0.08160457  0.08303896 -0.05029445
  0.08503722 -0.13938889  0.00627301  0.11234555  0.18008264  0.03795401
 -0.03065842 -0.10811275 -0.30543144  0.00947894  0.00605258  0.03922756
 -0.19145854 -0.06809302  0.09936064  0.09303902 -0.00859515 -0.03727452
  0.07805602  0.04587687 -0.03219973 -0.02755798  0.00683224  0.05830165
 -0.25569811  0.0251548   0.09197746 -0.00899572  0.03501656  0.04837142
 -0.01674062  0.13728413  0.06903162 -0.04545166  0.11600314  0.06314551
  0.11166893  0.06835979 -0.02941061  0.01980348 -0.03540082 -0.03001222
  0.02459518  0.01184325  0.10106204  0.03923998 -0.0754853  -0.04657871
  0.02062073 -0.07406617  0.03897623  0.03409868 -0.09312841 -0.00663537
 -0.05093345 -0.03778433 -0.01877863 -0.00261195  0.08971408  0.30078587
  0.17286758 -0.17565468  0.06795572  0.07905968 -0.11289024 -0.01804686
 -0.09880761  0.02290641 -0.07223595  0.03428595  0.04523897  0.11839305
  0.03802736  0.00834463  0.13369991  0.12314754  0.09384088 -0.17012597
  0.14206143  0.10104242  0.19146311 -0.06037968 -0.15517582 -0.02611813
  0.05961601 -0.02786786  0.13539412 -0.10223556 -0.13313746 -0.00098227
  0.06392573  0.13223279 -0.14539806  0.        ]",[0.],"[3.916144378168306e-05, 0.008875346364973329, 0.0005575164127085841, 0.0029625432444158593, 0.0002876777350523753, 0.0027203661287020747, 0.0005135907426686058, 0.0027122085730027184, 0.001647084388501304, 0.002666519173315189, 0.004219930324559378, 0.004011277194969002, 0.004622471344389208, 0.007966533818460634, 0.0084052875278641, 0.008922330398068052, 0.00991104643418312, 0.012082842730956427, 0.013003584176585925, 0.014653708389371455, 0.015857161205081887, 0.017923129171167496, 0.018713948718719745, 0.02002733107412778, 0.020962806914639552, 0.02219871083252073, 0.02270084440877307, 0.022781527248174747, 0.023301113323617676, 0.024206420276491884, 0.02462879660286126, 0.024537028763884416, 0.025640553851057367, 0.025991458110574947, 0.025673748428790766, 0.02580727172641092, 0.02652670839220074, 0.026874088535036186, 0.026922707546098112, 0.027183101718806647, 0.027175030542760537, 0.027443122469901517, 0.02775914473149871, 0.028246675801631153, 0.028193102157093745, 0.027769063401984005, 0.028457243025026727, 0.028909266792603562, 0.028746776343868845, 0.028800990102852114, 0.02859974012232633, 0.028912057465955508, 0.029471429381322762, 0.029380359014070077, 0.02908564264942696, 0.029066133683448597, 0.02955478164680425, 0.030087257243605236, 0.029852985728380733, 0.029385337760548344, 0.02985854299801703, 0.030335723019990934, 0.030354738451811712, 0.03028766053031444, 0.02990544607957389, 0.030510982361847263, 0.03103989455030917, 0.03054537946645657, 0.030424026269366095, 0.03050578695738678, 0.030857768107123377, 0.031237115205627584, 0.030826345409013654, 0.030494719890090848, 0.0312794367310237, 0.031479299093142336, 0.031210921187719984, 0.031072551153964543, 0.03093293492651465, 0.03166654148775808, 0.03176198320966875, 0.031099067447869912, 0.031199573705856614, 0.03187796385410986, 0.03171093725715717, 0.031624960959382296, 0.03126267419260324, 0.031208135850251843, 0.03218504960291172, 0.031775040653612655, 0.03124381789240372, 0.03145944381718673, 0.03182577695644613, 0.03183438794779235, 0.03172721498512869, 0.031197944156385212, 0.03180653489750777, 0.0323305709075314, 0.03177375226306508, 0.031516488673765615, 0.03166951492642075, 0.03407486312429695, 0.03127844181958996, 0.031855310921010044, 0.03173799832419614, 0.03190418672257176, 0.03165759493614607, 0.0317687713091595, 0.03163844190305762, 0.031736487553589106, 0.031986200516964096, 0.03148478088417339, 0.03139393868231914, 0.0321109764654194, 0.031841353320143845, 0.03161326774442282, 0.03187434274397548, 0.032111496038689194, 0.03236672732953159, 0.0326346115411321, 0.032085576726532526, 0.03188351602755073, 0.0324421838549316, 0.03208041021345396, 0.03158794739934712, 0.031959253077558654, 0.03195366481883912, 0.031859755228286386, 0.032035092762732524, 0.031644495078071454, 0.031684660558843974, 0.03236287986454733, 0.0319904690538844, 0.03151438225978714, 0.03197479579581039, 0.0320956011487543, 0.031727382990372754, 0.031956538427965954, 0.031726162490827964, 0.03173031652563233, 0.03221577327788501, 0.03196869877677154, 0.031394046115516605, 0.0321638706220702, 0.032342120207365106, 0.031934695013775945, 0.032063377511707646, 0.03215498575807287, 0.032069459270088585, 0.03242657478339922, 0.03215735041814185, 0.031792478695374535, 0.03226926266752707, 0.03244627734434345, 0.03181825199791156, 0.0318461418628199, 0.03216699056999649, 0.032127359306502415, 0.03212241009038438, 0.03205095147280535, 0.03168775484575759, 0.032052430298030676, 0.03227003710475602, 0.031706618992356425, 0.03169685357461124, 0.0321654576010846, 0.031943116237099715, 0.03188530175802126, 0.03184497633117692, 0.031775486266928395, 0.03207999880102017, 0.032128614599045285, 0.03159433536914326, 0.031683282554360016, 0.03229296180128705, 0.031947877002872105, 0.03181488016503837, 0.03190258358507771, 0.03192289170300774, 0.03210239868833017, 0.03215003165873303, 0.03161672418599983, 0.031815499460077744, 0.03232325234512797, 0.03196498737909018, 0.03172592494314922, 0.03211542502702664, 0.03206869098992152, 0.03208393992608335, 0.03214768773144575, 0.031852362271426876, 0.03195954259829217, 0.032487054123831814, 0.03201896380702848, 0.03169610888326578, 0.03210026189649918, 0.032129222317456234, 0.03186673510075558, 0.03198113217391264, 0.031830696690681934, 0.03186895770380476, 0.03238741203524722, 0.031624717788830706, 0.03131017490197298, 0.03141331093417123, 0.031412559784918484, 0.03147385886354771, 0.031564316074392765, 0.031231750027861136, 0.031280059325544375, 0.03175493884488466, 0.031474743984395835, 0.031235333800499705, 0.03152617724608436, 0.031589778644863196, 0.031441803711518876, 0.031772453411664105, 0.031554453551997694, 0.03172396445949931, 0.03208929124597561, 0.031681944883837736, 0.03126772610935305, 0.03171406634395071, 0.031723257601211516, 0.03136909741448451, 0.0315903514669875, 0.031382471413628064, 0.03137853337211668, 0.03175494847905378, 0.03142224755489843, 0.031102685182867355, 0.031764755817545176, 0.031640492780275926, 0.03128159555157449, 0.031503681980180075, 0.03140297882362653, 0.03144369698321825, 0.0317069138256789, 0.031394917862900946, 0.031157442315051086, 0.031762490418310224, 0.03163078619079171, 0.031285537948741435, 0.03152119977748492, 0.03170282711678213, 0.0315795707895318, 0.031806637197741204, 0.03156874246450684, 0.031425490078700304, 0.03194462147625688, 0.03178043404708929, 0.03137021396458261, 0.031532956157925555, 0.03174544876235845, 0.031537306564383305, 0.03156463057847199, 0.03145038615791961, 0.03143294424885918, 0.031694765997291145, 0.03164196466534724, 0.031277377335365175, 0.031408260382942796, 0.031806383495572715, 0.03148674273163595, 0.031383789397753326, 0.03149103729881231, 0.031524218293460714, 0.031546937949611734, 0.031626168688321785, 0.0312671634900981, 0.031388542177932174, 0.031801679107108016, 0.031481900827811424, 0.03123126456488277, 0.031556096561244376, 0.031608873284807965, 0.03139252075230499, 0.03162194389904376, 0.03132328204849288, 0.031455342728273945, 0.03184831655578067, 0.031503422593664836, 0.031197744247110467, 0.03175337993680896, 0.031752813813539, 0.03142720496498284, 0.03172720415568494, 0.03149654318436888, 0.03158673997332786, 0.031931226855213886, 0.03160245652745855, 0.031224475920129575, 0.031962376085963015, 0.031764934787867925, 0.031412845124583796, 0.031609567472198896, 0.03151072326850079, 0.03152188391093476, 0.03180946142524726, 0.031453243102175454, 0.031169584363592687, 0.0323258421042599, 0.031155408575881133, 0.03135869218344016, 0.031208065579648232, 0.031134494216476995, 0.03135043940319051, 0.031197804830357535, 0.03113034860722252, 0.03137647396515667, 0.03129614355440971, 0.031113000167517, 0.031280188867735766, 0.03129254373188082, 0.03123679240988121, 0.031340589932655386, 0.03127365083338452, 0.0312748762223876, 0.031467055555788576, 0.03146233688655529, 0.031236688706790305, 0.03134808689683096, 0.031435275054027226, 0.031306387561068155, 0.03125128110091235, 0.03129196691827613, 0.03121490297946351, 0.0313333879293726, 0.03136250203416598, 0.031147354069596365, 0.031244438036182372, 0.031422501800362226, 0.03126984186106313, 0.031160081480513743, 0.03133065542436945, 0.031274547729935286, 0.03124932171156483, 0.0313690869220462, 0.031199845370104125, 0.031179279038126336, 0.03150333909247666, 0.03130619810460855, 0.031094217697838895, 0.03143413275662722, 0.0313433503788634, 0.031226895823461064, 0.031398660869926535, 0.03131279278395991, 0.03121444734651651, 0.031557698807071266, 0.03134260171585831, 0.031175415994547408, 0.03144441492111282, 0.03140351387441361, 0.031200802470195372, 0.031382085300887645, 0.03130822421162361, 0.03122730370077911, 0.031460781281508664, 0.031245512769029135, 0.031122955739391542, 0.03143150923831283, 0.03135460071066344, 0.031140125329837447, 0.03133039484606658, 0.031277433493885065, 0.031211897908677677, 0.0313891550935808, 0.03121320450767243, 0.03111966330410286, 0.0314054771740786, 0.03131713718014133, 0.031113545893573222, 0.03131767161472291, 0.031294919074793245, 0.031238287855865313, 0.03135384252204074, 0.031244901942449593, 0.0311886543981761, 0.03138942426154549, 0.0313480106881717, 0.031135349982992843, 0.03130274139778955, 0.03135973737185702, 0.03127289510842045, 0.03130162899116663, 0.03132698544872671, 0.031235880902145616, 0.03142525958141021, 0.03141926608177925, 0.0312152851493929, 0.03134509761695144, 0.03146060381818488, 0.03132678088281431, 0.03125648352227095, 0.031381478056920056, 0.03129122890984259, 0.03132496729114336, 0.03140845110080627, 0.03123147217793769, 0.031223269096442876, 0.03150500280696909, 0.031163775986374126, 0.03111643729586736, 0.031186456768999372, 0.031115302039151815, 0.031098361699791036, 0.031193481911459594, 0.031193406251469234, 0.031060807416178123, 0.031214930390701702, 0.031147226133656218, 0.0310777889523178, 0.031202492820094647, 0.03116890145475263, 0.031095710270771633, 0.031198547043299593, 0.031222633242058827, 0.031128686516108426, 0.03130458998732636, 0.031209933138933173, 0.03112408895979776, 0.031202193805750036, 0.031201225257882714, 0.031091417099684465, 0.0311745063523585, 0.03117653078054483, 0.03109367162037941, 0.03120389651600386, 0.031139110045202825, 0.031097949411472543, 0.03116021839005476, 0.03121373534563088, 0.031081382249784264, 0.031175500280907223, 0.03117244129513288, 0.03111305795869222, 0.031160930395599813, 0.031171656177332602, 0.03111345398742855, 0.031160923698154798, 0.031216835268017475, 0.031088293158842956, 0.03115203712966179, 0.031191827400936335, 0.031173842096872188, 0.03114674514627182, 0.031233514134757084, 0.031160489177058076, 0.031176889236609936, 0.03125376800357531, 0.031134554895075477, 0.031177831047028846, 0.0312468719595942, 0.03119356214784797, 0.03111935584143152, 0.03122497267867356, 0.031119427658910147, 0.03117228327694955, 0.031217801195353126, 0.031127347698210052, 0.03110911523711461, 0.03122694724569067, 0.031147650152462836, 0.031069976458223354, 0.03124043045986143, 0.031143743363084165, 0.03113047826388391, 0.031208850966764814, 0.031133004822787077, 0.03107993829827697, 0.031243716613601664, 0.031147167121665768, 0.031062037477082045, 0.031221280282608784, 0.031182191262409054, 0.031103242689965675, 0.03118313413763191, 0.031164782412828638, 0.031081176025424578, 0.031249636520641617, 0.031164849317461205, 0.031080664894785982, 0.031200109771268515, 0.03119923371009572, 0.031104860680030308, 0.031179170916003366, 0.031209124682856974, 0.031131435296323944, 0.03123497805894474, 0.031177489458819433, 0.031119715901354206, 0.031201971724386064, 0.031267923584059644, 0.031128340454275035, 0.031174636722578676, 0.031215334677249837, 0.031148848733949092, 0.03118824274321168, 0.031172095091871094, 0.031149146346418247, 0.03132253971236325, 0.03105680814599496, 0.031065208599249383, 0.031124211466665566, 0.03104059826528865, 0.03107235283195273, 0.031101049633726303, 0.03104846266769554, 0.031071261254027236, 0.03109989959248305, 0.031065613293492143, 0.031045860212634637, 0.03111828913269798, 0.031054757434205833, 0.031091181716054926, 0.031106157068711077, 0.031064789804578035, 0.031079566160949236, 0.03114002054432763, 0.03109244974074264, 0.031052866437636616, 0.031123889837118522, 0.031073688741063758, 0.03107683350845466, 0.031082010465937983, 0.031077331371341076, 0.03103827814147977, 0.031133602364249748, 0.031067010386906853, 0.031055168764581028, 0.031096284961016657, 0.03109038664213263, 0.031052095907095692, 0.03109036365540468, 0.031091154026166808, 0.031054311206875247, 0.031114561196224026, 0.03107489073993864, 0.031052793068190476, 0.03108257139817887, 0.031123676051899127, 0.031048703367012178, 0.031096925657479922, 0.031101325212616715, 0.031056379742925754, 0.031103928146763486, 0.03110245677717874, 0.031070712015785262, 0.031105770110582187, 0.031135504877632506, 0.03106326329383835, 0.031100372065749993, 0.03111068811780111, 0.03107960096709596, 0.031080247685247423, 0.03110857762062419, 0.031059969054451075, 0.031095686508787808, 0.031115308659205462, 0.031039925126817528, 0.03109124424584843, 0.03110987814032467, 0.03108182631453269, 0.031073776587435042, 0.03109990450504082, 0.031045914678970166, 0.031089143589023777, 0.03109894686661093, 0.031041483487231986, 0.03107850449584583, 0.031107169391656957, 0.03106172826148662, 0.03105535129254732, 0.031121173894865215, 0.03104974290892213, 0.03110190766964427, 0.031103498158627573, 0.03105018761793195, 0.0310744443792267, 0.031104640450209033, 0.031066861600438943, 0.031057411378755832, 0.03111329787344225, 0.03106245462511461, 0.031093359756760874, 0.031086952879974313, 0.03107918022905885, 0.031059618504906475, 0.031115281736045233, 0.031069549109632746, 0.031076010247127434, 0.031098790611758964, 0.031095809061732368, 0.03108104851364086, 0.031091510917925027, 0.03110574920925388, 0.031072753708527606, 0.03112198324515933, 0.031086580136076982, 0.03107746427334383, 0.031120924495446164, 0.03103004572585887, 0.03099326706811001, 0.03104157561892527, 0.031049837622390202, 0.031008604193504367, 0.031051408709892286, 0.031001294763529617, 0.031019061193209692, 0.031080230153530557, 0.031031739948992942, 0.03097393382651326, 0.031061706283572826, 0.031052611718049062, 0.031006516175760772, 0.031052890987221377, 0.031022197683446173, 0.031028549508838665, 0.031082316208668827, 0.031032059078077594, 0.030975056002367895, 0.031081514675594443, 0.031055884701467064, 0.031002697940897803, 0.03104108897742199, 0.031023499272559058, 0.03102544355755751, 0.031075976284086197, 0.031018274774794286, 0.0309819944079481, 0.03107684891604285, 0.03105164924280723, 0.03099503793336074, 0.031029454073180446, 0.03104953669082527, 0.03102827830471524, 0.03105917412933188, 0.031019058902857687, 0.030989370290600327, 0.031080549886099932, 0.031055555948985517, 0.030997516593275196, 0.031026335376074913, 0.03105918333349567, 0.03103133550065215, 0.031041448687166687, 0.03102246072071123, 0.031018445322309466, 0.03106340147870238, 0.031060220210963642, 0.03100059150904427, 0.031023712077246583, 0.03107276228927275, 0.031032658649771307, 0.031015153079396795, 0.031035200350277615, 0.031038126974254232, 0.03104219637133846, 0.03105557045501196, 0.031000634829123668, 0.031014963795586038, 0.031085774763853408, 0.03103550094264586, 0.030994701323034675, 0.031049411309387362, 0.03104929338104882, 0.031019169479481544, 0.03105728383576327, 0.031006838803398794, 0.031021347249389368, 0.03108878390938929, 0.031037520707899596, 0.030980718135761805, 0.031057971947464444, 0.03106216383290499, 0.03101197891189127, 0.031057603016685233, 0.031025074933640907, 0.031016564530462906, 0.031080289555431555, 0.0310296632863487, 0.030979979351169633, 0.031074075992507267, 0.03106612819460515, 0.031009973592071735, 0.031046246304602176, 0.031021309235704807, 0.031023578395410086, 0.03107372867648728, 0.031025964286641464, 0.030983828550197552, 0.03108045345259155, 0.031062259460499946, 0.031007829574867495, 0.031030423120606058, 0.031041500183442112, 0.03103282673909002, 0.031061124366975498, 0.031024087027344535, 0.03099740032697099, 0.031120494721308106, 0.030975804721616308, 0.03100954837077474, 0.031005479926394523, 0.030993364445695896, 0.031008443718752127, 0.030992582338169514, 0.03098868901308556, 0.03102434204367831, 0.03101720266402385, 0.030984491276389983, 0.030991964620138875, 0.03102198792725146, 0.031004003109313446, 0.030998879558716184, 0.030999974886881616, 0.030997091722005047, 0.031012247121761004, 0.03102483345939639, 0.030990473391824844, 0.03098808991523373, 0.031036651598762597, 0.031005649066196767, 0.030985494840075078, 0.03100631891840741, 0.031014605362424424, 0.031001331696635638, 0.031020385705124297, 0.03098448759195739, 0.030988716107656508, 0.031038256555197343, 0.03100814212888399, 0.0309769492482281, 0.031010747872209088, 0.031017263626790987, 0.03099313852971438, 0.031016960422465926, 0.030986925351541232, 0.030996450286236807, 0.03103762789872335, 0.031004701164316757, 0.030968439500834728, 0.03102155653062294, 0.031022446389246377, 0.03098931247939415, 0.031014388006886575, 0.030990804956333152, 0.030999271973884468, 0.03103216963425438, 0.031003458729938007, 0.030967207435127236, 0.031035189531644452, 0.031023414810012955, 0.030991394867151037, 0.031010683323716193, 0.031003913515669994, 0.0310081353495867, 0.0310271357110993, 0.031002469515351606, 0.030973376942611434, 0.0310289322156438, 0.031021181864475736, 0.030987006890813254, 0.030996246176050277, 0.031011875495823647, 0.031002767007757257, 0.031014753085861074, 0.0309981598673969, 0.030979822607666217, 0.03102847607037915, 0.031022502275929193, 0.03098613282924084, 0.03099082435646837, 0.031025180776983612, 0.031007448038009956, 0.03100359736110547, 0.03100119515800207, 0.030992050904042695, 0.03101662466327967, 0.031023529569218597, 0.03098727772459456, 0.030983515793027296, 0.031033760228395515, 0.031004885727208532, 0.030992497828924437, 0.030999142656528235, 0.03101278639989691, 0.031009866831426883, 0.03102154605114462, 0.030985939072319727, 0.03098563781689237, 0.031041094170307773, 0.031010960181548433, 0.030986447832968545, 0.03100297363121142, 0.03101847198401456, 0.031004401137904685, 0.031019704526351378, 0.030987576514452535, 0.030994152267966108, 0.031025659088742275, 0.030982460000419848, 0.030978558983647396, 0.030987157981532936, 0.030989118028531118, 0.030987124489346044, 0.030988870097111106, 0.0309709038548794, 0.03099056833906479, 0.03100034093384128, 0.030979484870947843, 0.0309704447114907, 0.030995561100020767, 0.030989745171536198, 0.030981424261496734, 0.030988489001779855, 0.03097690057233775, 0.03099175187839556, 0.031000908256493667, 0.030980522890462204, 0.03096666497373763, 0.03100544221553396, 0.030993168390044852, 0.030978257232237114, 0.03098691737092726, 0.030984964415305863, 0.030985821759344313, 0.031001047478895802, 0.030979790037693633, 0.030967180876689447, 0.031011145008474548, 0.030995137029754517, 0.03097314669711911, 0.03098630609505741, 0.03099363549966364, 0.030982043655589223, 0.030997586613897572, 0.03097728644245257, 0.03097436204886842, 0.031005402412318264, 0.030992796041873334, 0.030968645201075333, 0.0309848496071576, 0.031002414736434943, 0.030984306575313356, 0.030992764539075932, 0.030980293896529794, 0.03097935012480069, 0.031000402671877904, 0.03099104080065969, 0.030968704047702918, 0.03098653767939797, 0.031002427690620133, 0.030982166256054256, 0.03098542210763152, 0.030979146526540255, 0.030989805205196747, 0.030995724164454102, 0.03099100162171552, 0.030968014677482607, 0.030989355023585553, 0.0310015318167984, 0.030982171437206427, 0.030977276807481816, 0.0309884815362437, 0.03099330444483136, 0.030990383635330857, 0.030991259155402264, 0.030969912159970605, 0.030989041212807742, 0.031002930911477967, 0.030981811054226812, 0.03097012471657032, 0.030996911406499662, 0.03099223346507867, 0.030982506094139328, 0.030990397267349715, 0.03097619156694533, 0.030992529281020118, 0.03100467801527564, 0.030982396351639914, 0.030965650564309274, 0.031003783065212297, 0.030993979608652772, 0.030977719899652572, 0.030987823377018574, 0.030984007850828544, 0.03098586744541036, 0.031003506267449115, 0.0309810775867159, 0.030962265246360827, 0.031014501111176224, 0.030997542181046268, 0.03097299643466032, 0.03098998450737338, 0.03098622521355938, 0.03098452781608075, 0.031000836900402562, 0.03098134325101566, 0.030966837883393623, 0.031015078000842713, 0.030973276429113107, 0.030981973493161036, 0.030968034852194033, 0.030970547497529824, 0.030983269546375095, 0.03097547739398881, 0.030961570027905175, 0.030978422862535566, 0.03098183894552757, 0.03097015633976336, 0.030973136699339474, 0.030972222973768653, 0.0309773773629772, 0.03098043575119816, 0.030976736863335606, 0.030962927473967092, 0.03097863469886176, 0.03098350276448688, 0.030970782640411247, 0.030967771352326697, 0.03097962562316891, 0.03097816491848463, 0.03097497113839578, 0.030976969458034603, 0.030966838909953744, 0.03098047049559834, 0.030986505004873374, 0.03097264105770432, 0.03096323118458105, 0.030985009449460046, 0.03097886930550129, 0.03096990756258343, 0.030976905158620116, 0.030973682932226656, 0.03097435364761911, 0.030986917506278907, 0.03097205705030283, 0.03096032744368269, 0.030993373485232425, 0.030981212136756277, 0.030966708555907253, 0.03097814777715938, 0.030976186914858362, 0.030973660997361572, 0.030984369390013918, 0.030970647455325233, 0.030963094799613976, 0.030991624571703878, 0.030978118564530206, 0.030964628376014994, 0.03097637544506834, 0.03098399848086101, 0.03097266550256157, 0.030981583659355594, 0.0309694169706097, 0.030967893617665696, 0.03098784534063774, 0.030977481132335095, 0.030962482767063825, 0.030977405292479034, 0.03098394626572808, 0.03097185233313806, 0.030979432906433516, 0.0309685393416354, 0.03097134754295081, 0.030985223793944635, 0.030975751065421615, 0.030961723392106167, 0.030979154048315322, 0.030983306649681002, 0.03097039621158145, 0.030974836703635995, 0.030971183534396048, 0.03097851374537396, 0.0309825051746735, 0.030977364516349262, 0.030962963122841858, 0.03097856659832156, 0.030983945036942635, 0.030971523481517594, 0.03096949941391472, 0.030977152556785535, 0.030978673749216725, 0.03097723020892897, 0.03097731917083959, 0.030965513358957673, 0.03097897818313668, 0.030986036049872136, 0.030972323173839158, 0.030964715977024205, 0.03098266080357752, 0.030979839361904765, 0.030971154934378284, 0.030978217066957605, 0.0309702846501857, 0.03097802409671901, 0.030986566279177473, 0.030972610080580124, 0.03096103234611558, 0.030989132528708836, 0.03097076780850134, 0.03096512992728208, 0.030970886986937344, 0.030968345397329494, 0.03096462985047493, 0.030969795703723164, 0.030968676653085447, 0.030962676565183565, 0.03097405484519291, 0.030968652898142702, 0.030962420450378565, 0.03097097098675316, 0.030970925178785285, 0.030964075096506505, 0.03096838051110165, 0.03096838251371296, 0.030964793330232238, 0.030972431812994274, 0.03096731231350456, 0.030962353103817803, 0.030971022211320958, 0.030972239987863803, 0.030963954858145373, 0.030967879146785806, 0.030969796117972265, 0.0309672085885129, 0.030970641091137112, 0.03096755667282892, 0.030963303754723184, 0.030970926656006433, 0.03097220870237638, 0.03096388552144395, 0.030966294448323554, 0.030971472929374706, 0.030969064355384324, 0.03096811722903884, 0.03096813489163083, 0.030966692833123154, 0.03097005777284987, 0.030973066832829767, 0.030964477038199125, 0.030964303851008273, 0.030973886167570894, 0.030969400698071442, 0.030964869650206468, 0.030969683100579473, 0.030967334008818678, 0.030969806491674325, 0.030973376693998616, 0.03096460379791064, 0.03096421944876324, 0.030974565160406878, 0.030968614849776588, 0.030962549683874935, 0.030971377708840918, 0.030969291383900498, 0.03096729657849682, 0.0309718790888509, 0.030965333308736506, 0.030964383971866117, 0.030977230354984685, 0.030969664600529148, 0.03096134842444209, 0.030971886573757938, 0.03097012446702594, 0.030965318489626383, 0.03097151199811589, 0.03096673830753231, 0.03096412595649771, 0.030976103739329103, 0.030968539078935316, 0.03096063297153944, 0.03097273921588358, 0.030972528585555176, 0.03096472724672256, 0.03096968627510129, 0.030966538765455725, 0.030966232589260335, 0.030973814345335075, 0.030968753915158083, 0.03096114883952197, 0.030971896352952284, 0.030973497454839134, 0.030965193598780152, 0.030967201175972493, 0.03096869327583678, 0.030966992138379227, 0.030971129082668164, 0.030967773894147253, 0.030962688260455614, 0.03097094436272442, 0.030973026570077902, 0.030964428864058414, 0.030965488364171765, 0.030971512931605966, 0.030970089598808755, 0.030969224147194805, 0.030968878389396673]","[array([2.99999975]), array([3.00004264]), array([2.99997632]), array([2.9998442]), array([2.99953477]), array([2.99849271]), array([2.99522119]), array([2.98738399]), array([2.97306478]), array([2.95275352]), array([2.92643459]), array([2.89932162]), array([2.87296049]), array([2.84662209]), array([2.82339405]), array([2.801303]), array([2.78005761]), array([2.75916425]), array([2.73996971]), array([2.72169852]), array([2.70584716]), array([2.69142713]), array([2.67935568]), array([2.66847425]), array([2.65971246]), array([2.65206834]), array([2.64549077]), array([2.6400318]), array([2.63533852]), array([2.63109871]), array([2.62696813]), array([2.62379788]), array([2.62050088]), array([2.61800161]), array([2.61564798]), array([2.6136944]), array([2.61153595]), array([2.60985398]), array([2.60816638]), array([2.60681857]), array([2.60572965]), array([2.60467299]), array([2.60355867]), array([2.60242703]), array([2.60162976]), array([2.60101696]), array([2.60013932]), array([2.5996536]), array([2.59888149]), array([2.59839701]), array([2.59804885]), array([2.59742358]), array([2.59714362]), array([2.59658245]), array([2.59626778]), array([2.5960733]), array([2.59559843]), array([2.59512271]), array([2.5949553]), array([2.59476542]), array([2.5946682]), array([2.59430322]), array([2.59391204]), array([2.59383429]), array([2.59370764]), array([2.59337669]), array([2.59310551]), array([2.59299521]), array([2.59289448]), array([2.59289954]), array([2.59262789]), array([2.59234413]), array([2.59233663]), array([2.59229803]), array([2.59211711]), array([2.59186849]), array([2.59181435]), array([2.59185479]), array([2.59185139]), array([2.59164328]), array([2.59148137]), array([2.59146785]), array([2.59146574]), array([2.59133129]), array([2.59112285]), array([2.59118222]), array([2.59119949]), array([2.59122709]), array([2.59090308]), array([2.5909041]), array([2.59091394]), array([2.59101191]), array([2.59085285]), array([2.59066817]), array([2.59074259]), array([2.59078433]), array([2.59061653]), array([2.59050105]), array([2.59052188]), array([2.59055503]), array([2.59066789]), array([2.58993276]), array([2.59022475]), array([2.58975655]), array([2.59007425]), array([2.58979016]), array([2.58993222]), array([2.59000696]), array([2.58991352]), array([2.58999047]), array([2.58992288]), array([2.58993588]), array([2.59004424]), array([2.58992521]), array([2.58987133]), array([2.58992461]), array([2.58997914]), array([2.58989646]), array([2.58984732]), array([2.58986083]), array([2.58991103]), array([2.58998179]), array([2.58994722]), array([2.58982042]), array([2.58992582]), array([2.58992693]), array([2.58991714]), array([2.58980441]), array([2.58987489]), array([2.58988419]), array([2.58987574]), array([2.58977108]), array([2.58979521]), array([2.58987212]), array([2.58993677]), array([2.58986683]), array([2.58983154]), array([2.58984082]), array([2.58991946]), array([2.58985397]), array([2.58980502]), array([2.58979228]), array([2.58990879]), array([2.58985531]), array([2.58975577]), array([2.58978843]), array([2.58986857]), array([2.58988832]), array([2.58989327]), array([2.58982092]), array([2.58985406]), array([2.58989991]), array([2.5898792]), array([2.58973994]), array([2.5898435]), array([2.58989691]), array([2.58983478]), array([2.58973103]), array([2.5898003]), array([2.58980875]), array([2.58992354]), array([2.58989134]), array([2.58978014]), array([2.58983584]), array([2.58993859]), array([2.5898758]), array([2.58978516]), array([2.58985156]), array([2.58987021]), array([2.58982816]), array([2.58990508]), array([2.5898463]), array([2.58986477]), array([2.58997717]), array([2.58986744]), array([2.58981176]), array([2.58987823]), array([2.58993988]), array([2.58986309]), array([2.58981526]), array([2.58983824]), array([2.58989661]), array([2.58997573]), array([2.58994338]), array([2.58982621]), array([2.58992259]), array([2.58995549]), array([2.58991309]), array([2.58982434]), array([2.58989208]), array([2.5899018]), array([2.58990655]), array([2.58977642]), array([2.58983682]), array([2.58988167]), array([2.58998008]), array([2.58988163]), array([2.58986138]), array([2.58986491]), array([2.58994645]), array([2.58988499]), array([2.58990432]), array([2.58994439]), array([2.58993009]), array([2.58995745]), array([2.58992154]), array([2.58988536]), array([2.58987967]), array([2.58992553]), array([2.58998324]), array([2.58986165]), array([2.58986802]), array([2.5899269]), array([2.58996013]), array([2.58991264]), array([2.58990613]), array([2.5899018]), array([2.58994236]), array([2.58992273]), array([2.58984463]), array([2.58986772]), array([2.58993585]), array([2.58996364]), array([2.58985515]), array([2.58987081]), array([2.58992159]), array([2.58993332]), array([2.58993345]), array([2.5898935]), array([2.5899029]), array([2.58994565]), array([2.58991686]), array([2.58984433]), array([2.5898916]), array([2.58994412]), array([2.58996708]), array([2.58986504]), array([2.58989583]), array([2.58991358]), array([2.58995137]), array([2.58996065]), array([2.58986158]), array([2.58991868]), array([2.58996299]), array([2.58990707]), array([2.58986943]), array([2.58990163]), array([2.5899278]), array([2.5899575]), array([2.5898973]), array([2.5898488]), array([2.58992368]), array([2.58996244]), array([2.58992091]), array([2.58985971]), array([2.58992839]), array([2.58991949]), array([2.58998874]), array([2.58989028]), array([2.58987729]), array([2.58992364]), array([2.58998835]), array([2.58984535]), array([2.58986015]), array([2.58992662]), array([2.58992723]), array([2.58991076]), array([2.58987665]), array([2.5898754]), array([2.58992044]), array([2.58998992]), array([2.58984771]), array([2.58986522]), array([2.58993366]), array([2.58993495]), array([2.58992039]), array([2.5898862]), array([2.58988607]), array([2.58993265]), array([2.58992272]), array([2.58985878]), array([2.58988173]), array([2.58993202]), array([2.5899528]), array([2.58984551]), array([2.58987697]), array([2.58991228]), array([2.58994254]), array([2.58992902]), array([2.58987807]), array([2.58988684]), array([2.58995507]), array([2.58990117]), array([2.58985375]), array([2.58987915]), array([2.58995367]), array([2.58995617]), array([2.58986959]), array([2.58989026]), array([2.58991434]), array([2.58995139]), array([2.58999561]), array([2.58995978]), array([2.589947]), array([2.58993691]), array([2.58996063]), array([2.58995817]), array([2.58994824]), array([2.58994237]), array([2.58996006]), array([2.58993086]), array([2.58993503]), array([2.58998885]), array([2.58993418]), array([2.58992296]), array([2.5899387]), array([2.58995344]), array([2.58992438]), array([2.58996923]), array([2.58991373]), array([2.58994405]), array([2.58997774]), array([2.58994965]), array([2.58991205]), array([2.5899491]), array([2.5899511]), array([2.5899376]), array([2.58991772]), array([2.58991095]), array([2.58994309]), array([2.58993253]), array([2.58993286]), array([2.58991471]), array([2.58994288]), array([2.58995339]), array([2.58993679]), array([2.5899223]), array([2.58991309]), array([2.58995041]), array([2.58993562]), array([2.5898904]), array([2.58990371]), array([2.58994912]), array([2.58994968]), array([2.58994306]), array([2.589922]), array([2.58993918]), array([2.58995712]), array([2.58995164]), array([2.58989483]), array([2.58992132]), array([2.58995222]), array([2.58995048]), array([2.58994419]), array([2.58993963]), array([2.589942]), array([2.58997581]), array([2.58995384]), array([2.58994657]), array([2.58993612]), array([2.58997809]), array([2.58994551]), array([2.58991294]), array([2.58993023]), array([2.5899743]), array([2.58992819]), array([2.58995411]), array([2.58994994]), array([2.58993763]), array([2.58998554]), array([2.58996566]), array([2.58992643]), array([2.58993791]), array([2.58998866]), array([2.58993615]), array([2.5899186]), array([2.58993877]), array([2.58995142]), array([2.58992741]), array([2.58996428]), array([2.58991905]), array([2.58994128]), array([2.58998537]), array([2.5899422]), array([2.58991842]), array([2.58994582]), array([2.58995469]), array([2.58993452]), array([2.58991766]), array([2.5899109]), array([2.58994199]), array([2.58993357]), array([2.58992629]), array([2.58991702]), array([2.58993716]), array([2.58995626]), array([2.58993101]), array([2.58992115]), array([2.58991]), array([2.58994903]), array([2.58993276]), array([2.58997044]), array([2.58998952]), array([2.58996871]), array([2.58995187]), array([2.58995747]), array([2.58994793]), array([2.58995399]), array([2.58993748]), array([2.5899515]), array([2.58997605]), array([2.58995105]), array([2.58996772]), array([2.58995381]), array([2.58995696]), array([2.58995219]), array([2.58996726]), array([2.58994198]), array([2.58995716]), array([2.58993836]), array([2.58994679]), array([2.58996445]), array([2.58996459]), array([2.58996142]), array([2.58995253]), array([2.58997351]), array([2.58994748]), array([2.58996213]), array([2.58995691]), array([2.58995355]), array([2.58997594]), array([2.58997046]), array([2.58993969]), array([2.58995242]), array([2.58997805]), array([2.58995032]), array([2.58996684]), array([2.58996186]), array([2.58995865]), array([2.58995073]), array([2.58996647]), array([2.58994294]), array([2.58995173]), array([2.58998277]), array([2.58995138]), array([2.58994079]), array([2.58995371]), array([2.58996259]), array([2.58994577]), array([2.58997284]), array([2.58994851]), array([2.58996321]), array([2.5899499]), array([2.58995438]), array([2.58993747]), array([2.58995857]), array([2.58997098]), array([2.5899567]), array([2.58994112]), array([2.5899503]), array([2.58996191]), array([2.58995483]), array([2.58996381]), array([2.58994767]), array([2.58996083]), array([2.58994953]), array([2.58995041]), array([2.58994776]), array([2.5899483]), array([2.58996837]), array([2.58995536]), array([2.58997032]), array([2.58994975]), array([2.58996768]), array([2.5899526]), array([2.58995702]), array([2.58995167]), array([2.58995462]), array([2.58997299]), array([2.58996154]), array([2.58994326]), array([2.58994402]), array([2.5899718]), array([2.58995974]), array([2.58996559]), array([2.5899519]), array([2.58996424]), array([2.58994215]), array([2.58996044]), array([2.58995204]), array([2.58995027]), array([2.58997271]), array([2.58995854]), array([2.58993082]), array([2.58994745]), array([2.58997216]), array([2.58994415]), array([2.58996257]), array([2.58995438]), array([2.58995552]), array([2.58994118]), array([2.58998825]), array([2.58997975]), array([2.58996457]), array([2.58996025]), array([2.58996434]), array([2.5899777]), array([2.58996167]), array([2.58997164]), array([2.58996899]), array([2.58997261]), array([2.58996272]), array([2.58997304]), array([2.58996395]), array([2.58996523]), array([2.58996255]), array([2.58996458]), array([2.58997588]), array([2.58996632]), array([2.58997919]), array([2.58996076]), array([2.58998019]), array([2.58996136]), array([2.58997367]), array([2.58995992]), array([2.58997351]), array([2.58997373]), array([2.58997756]), array([2.58995544]), array([2.58996575]), array([2.58997461]), array([2.58996877]), array([2.58996977]), array([2.58996848]), array([2.58996956]), array([2.58996182]), array([2.58996948]), array([2.58996122]), array([2.58996105]), array([2.58997887]), array([2.58996752]), array([2.58995322]), array([2.58996154]), array([2.58997193]), array([2.58995918]), array([2.58997076]), array([2.58996251]), array([2.58996208]), array([2.58996214]), array([2.58996768]), array([2.58995771]), array([2.58996098]), array([2.58997549]), array([2.58996117]), array([2.58997231]), array([2.58997157]), array([2.58996753]), array([2.58996633]), array([2.58996677]), array([2.58996592]), array([2.5899667]), array([2.5899658]), array([2.58996166]), array([2.58995701]), array([2.58996608]), array([2.58997737]), array([2.58996548]), array([2.58997818]), array([2.58996939]), array([2.58997221]), array([2.58997025]), array([2.58997295]), array([2.58996448]), array([2.5899712]), array([2.58996508]), array([2.58996363]), array([2.58996366]), array([2.58996245]), array([2.5899764]), array([2.58996629]), array([2.58997757]), array([2.5899621]), array([2.58997655]), array([2.58996343]), array([2.5899697]), array([2.58996237]), array([2.5899687]), array([2.5899756]), array([2.58997272]), array([2.58997704]), array([2.58996909]), array([2.58997604]), array([2.58997019]), array([2.58996958]), array([2.58996853]), array([2.58996984]), array([2.5899607]), array([2.58996793]), array([2.58995884]), array([2.58996172]), array([2.58997529]), array([2.58997537]), array([2.58997039]), array([2.58997534]), array([2.58997873]), array([2.58997587]), array([2.58997274]), array([2.58997578]), array([2.58998118]), array([2.58997773]), array([2.58996654]), array([2.5899709]), array([2.58997933]), array([2.58998838]), array([2.58996872]), array([2.58997187]), array([2.58997381]), array([2.58997965]), array([2.5899796]), array([2.58997212]), array([2.58997304]), array([2.58998186]), array([2.58997939]), array([2.58996645]), array([2.58997149]), array([2.58998311]), array([2.58998273]), array([2.58997032]), array([2.58997098]), array([2.58997734]), array([2.58998068]), array([2.58998382]), array([2.58996736]), array([2.5899757]), array([2.58998355]), array([2.58997476]), array([2.58996741]), array([2.58997447]), array([2.58997601]), array([2.58998366]), array([2.58997112]), array([2.58996595]), array([2.58997583]), array([2.5899835]), array([2.58997509]), array([2.58996778]), array([2.58997587]), array([2.58997697]), array([2.58998565]), array([2.58997278]), array([2.5899673]), array([2.58997829]), array([2.58998494]), array([2.58997846]), array([2.58996859]), array([2.58997951]), array([2.58997798]), array([2.58997667]), array([2.58996943]), array([2.58997019]), array([2.58997613]), array([2.58998792]), array([2.58996431]), array([2.58996777]), array([2.58997761]), array([2.58997863]), array([2.58997535]), array([2.58997071]), array([2.58997374]), array([2.58997935]), array([2.58997594]), array([2.58996348]), array([2.58996779]), array([2.589978]), array([2.58998303]), array([2.58996538]), array([2.58996781]), array([2.58997166]), array([2.58997666]), array([2.58997742]), array([2.58997012]), array([2.58997242]), array([2.58997876]), array([2.58997464]), array([2.58996277]), array([2.58997044]), array([2.58997863]), array([2.58998205]), array([2.5899787]), array([2.58997495]), array([2.58997417]), array([2.58998312]), array([2.58997681]), array([2.58996654]), array([2.58997268]), array([2.58998234]), array([2.58998449]), array([2.58996936]), array([2.58997281]), array([2.58997653]), array([2.58998241]), array([2.58999159]), array([2.58998333]), array([2.58998469]), array([2.58998075]), array([2.58997755]), array([2.58998147]), array([2.58998167]), array([2.58997897]), array([2.58997675]), array([2.58997498]), array([2.58997917]), array([2.58998499]), array([2.58997912]), array([2.58997539]), array([2.58997998]), array([2.58997996]), array([2.58998581]), array([2.58997764]), array([2.58997469]), array([2.58998037]), array([2.58998643]), array([2.58997915]), array([2.58997735]), array([2.58997939]), array([2.58998259]), array([2.58997835]), array([2.58997674]), array([2.5899775]), array([2.58998116]), array([2.58998659]), array([2.58997345]), array([2.58997459]), array([2.58998133]), array([2.58998379]), array([2.58998066]), array([2.58997689]), array([2.58997954]), array([2.58998201]), array([2.58998073]), array([2.58997477]), array([2.58997642]), array([2.58998153]), array([2.58998566]), array([2.58997353]), array([2.58997634]), array([2.58998225]), array([2.58998332]), array([2.58998157]), array([2.58997649]), array([2.58997764]), array([2.58998329]), array([2.5899815]), array([2.58997403]), array([2.5899768]), array([2.58998129]), array([2.58998312]), array([2.589975]), array([2.58997622]), array([2.58997915]), array([2.58998281]), array([2.58998267]), array([2.58997416]), array([2.58997785]), array([2.58998448]), array([2.58998542]), array([2.58997625]), array([2.58997847]), array([2.58998054]), array([2.58998463]), array([2.58997659]), array([2.58997319]), array([2.58997919]), array([2.58998416]), array([2.58997869]), array([2.58997393]), array([2.58997907]), array([2.58997953]), array([2.58998519]), array([2.58997644]), array([2.58997383]), array([2.58997961]), array([2.58998484]), array([2.58998201]), array([2.58997562]), array([2.58998045]), array([2.58998115]), array([2.58997874]), array([2.58997533]), array([2.58997723]), array([2.58998019]), array([2.58998622]), array([2.58997242]), array([2.58997363]), array([2.58998039]), array([2.58998272]), array([2.58997976]), array([2.58997558]), array([2.58997828]), array([2.58998109]), array([2.58998708]), array([2.5899815]), array([2.58998139]), array([2.58998182]), array([2.58998595]), array([2.58997928]), array([2.58998084]), array([2.58998143]), array([2.58998424]), array([2.5899839]), array([2.58998002]), array([2.58998178]), array([2.58998458]), array([2.58998749]), array([2.58998002]), array([2.5899819]), array([2.58998243]), array([2.58998511]), array([2.58997982]), array([2.5899794]), array([2.58998198]), array([2.58998465]), array([2.58998289]), array([2.58997895]), array([2.58998119]), array([2.58998421]), array([2.58998511]), array([2.58998101]), array([2.58997976]), array([2.58998281]), array([2.58998534]), array([2.58997884]), array([2.58997805]), array([2.589982]), array([2.58998369]), array([2.58998635]), array([2.58998052]), array([2.5899823]), array([2.58998377]), array([2.58998645]), array([2.58998013]), array([2.58997894]), array([2.58998349]), array([2.58998599]), array([2.58997843]), array([2.58997833]), array([2.58998186]), array([2.58998206]), array([2.58998727]), array([2.58998059]), array([2.58998042]), array([2.58998314]), array([2.58998758]), array([2.58997827]), array([2.58997983]), array([2.58998352]), array([2.58998406]), array([2.58998277]), array([2.589981]), array([2.58998051]), array([2.58998392]), array([2.58998779]), array([2.58997941]), array([2.58998007]), array([2.58998479]), array([2.58998438]), array([2.58997907]), array([2.58997971]), array([2.58998148]), array([2.58998312]), array([2.58998886]), array([2.58997894]), array([2.58998127]), array([2.58998447]), array([2.58998736]), array([2.58997939]), array([2.58998133]), array([2.58998176]), array([2.58998495]), array([2.58997899]), array([2.589979]), array([2.58998103]), array([2.58998436]), array([2.58998559]), array([2.58997945]), array([2.58998091]), array([2.58998389]), array([2.58998513]), array([2.5899801]), array([2.58997919]), array([2.58998236]), array([2.58998451]), array([2.58997847]), array([2.58997683]), array([2.58998174]), array([2.58998388]), array([2.58998664]), array([2.58997933]), array([2.58998085]), array([2.58998198]), array([2.58998615]), array([2.58998351]), array([2.58998266]), array([2.58998188]), array([2.58998507]), array([2.58998665]), array([2.58998435]), array([2.58998312]), array([2.58998547]), array([2.58998764]), array([2.58998264]), array([2.58998321]), array([2.58998568]), array([2.58998568]), array([2.58998222]), array([2.5899831]), array([2.58998342]), array([2.58998509]), array([2.58998802]), array([2.58998237]), array([2.58998355]), array([2.58998581]), array([2.58998608]), array([2.58998238]), array([2.58998334]), array([2.58998377]), array([2.58998563]), array([2.58998216]), array([2.58998102]), array([2.58998296]), array([2.58998543]), array([2.58998599]), array([2.58998242]), array([2.58998307]), array([2.5899843]), array([2.58998545]), array([2.58998283]), array([2.58998103]), array([2.58998386]), array([2.58998532]), array([2.58998149]), array([2.58998083]), array([2.58998358]), array([2.58998434]), array([2.58998638]), array([2.58998237]), array([2.58998303]), array([2.58998406]), array([2.58998647]), array([2.58998281]), array([2.58998218]), array([2.58998421]), array([2.58998461]), array([2.5899836]), array([2.58998246]), array([2.58998401]), array([2.58998474]), array([2.58998677]), array([2.58998364]), array([2.5899825]), array([2.58998512]), array([2.58998697]), array([2.58998191]), array([2.58998219]), array([2.58998518]), array([2.58998472]), array([2.58998788]), array([2.58998377]), array([2.58998357]), array([2.58998529]), array([2.58998812]), array([2.58998209]), array([2.58998324]), array([2.58998536]), array([2.58998588]), array([2.58998162]), array([2.58998292]), array([2.58998304]), array([2.58998504]), array([2.5899877]), array([2.58998232]), array([2.58998292]), array([2.58998576]), array([2.58998574]), array([2.58998214]), array([2.58998286]), array([2.58998367]), array([2.58998504]), array([2.58998513]), array([2.58998144]), array([2.58998324]), array([2.58998524]), array([2.58998612]), array([2.58998187]), array([2.58998331]), array([2.58998356]), array([2.58998559]), array([2.58998191]), array([2.58998201]), array([2.58998332]), array([2.58998536]), array([2.5899858]), array([2.58998417]), array([2.58998529]), array([2.58998523]), array([2.58998514]), array([2.58998475]), array([2.58998569]), array([2.58998602]), array([2.58998557]), array([2.58998441]), array([2.58998462]), array([2.58998594]), array([2.58998547]), array([2.58998561]), array([2.58998497]), array([2.58998612]), array([2.58998641]), array([2.58998598]), array([2.58998533]), array([2.58998516]), array([2.58998642]), array([2.58998603]), array([2.58998412]), array([2.58998495]), array([2.58998627]), array([2.58998466]), array([2.58998574]), array([2.58998527]), array([2.58998511]), array([2.58998657]), array([2.58998611]), array([2.58998434]), array([2.58998513]), array([2.58998665]), array([2.58998491]), array([2.58998401]), array([2.58998507]), array([2.58998518]), array([2.58998456]), array([2.58998578]), array([2.58998406]), array([2.58998502]), array([2.58998656]), array([2.58998495]), array([2.58998406]), array([2.58998518]), array([2.58998597]), array([2.58998494]), array([2.58998409]), array([2.58998397]), array([2.58998508]), array([2.58998666]), array([2.58998573]), array([2.58998445]), array([2.58998552]), array([2.58998579]), array([2.58998512]), array([2.58998441]), array([2.58998482]), array([2.58998559]), array([2.58998503]), array([2.58998371]), array([2.58998399]), array([2.58998535]), array([2.58998621]), array([2.58998529]), array([2.58998449]), array([2.5899851]), array([2.58998577]), array([2.58998535]), array([2.58998456]), array([2.58998456]), array([2.58998573]), array([2.58998477]), array([2.58998515]), array([2.58998474]), array([2.58998572]), array([2.58998629]), array([2.58998559]), array([2.58998447]), array([2.58998461]), array([2.58998614]), array([2.58998549]), array([2.58998374]), array([2.58998446]), array([2.58998603]), array([2.58998618]), array([2.58998594]), array([2.5899851]), array([2.58998519]), array([2.58998635]), array([2.58998609]), array([2.58998396]), array([2.58998502]), array([2.58998628]), array([2.58998469]), array([2.58998363]), array([2.58998476]), array([2.58998479])]",0.565446280113493,"[1.00033419e-11 9.42402932e-04 7.00464932e-03 2.29055416e-02
 5.14497201e-02 9.26117721e-02 1.43829290e-01 2.01020507e-01
 2.59750715e-01 3.16153194e-01 3.67403822e-01 4.11830228e-01
 4.48741799e-01 4.78193927e-01 5.00704564e-01 5.17069452e-01
 5.28181060e-01 5.34960761e-01 5.38268224e-01 5.38901012e-01
 5.37545966e-01 5.34806480e-01 5.31169360e-01 5.27043681e-01
 5.22733435e-01 5.18482207e-01 5.14447723e-01 5.10748895e-01
 5.07440020e-01 5.04557246e-01 5.02091431e-01 5.00031710e-01
 4.98337310e-01 4.96976690e-01 4.95899419e-01 4.95070146e-01
 4.94441811e-01 4.93984344e-01 4.93660204e-01 4.93448197e-01
 4.93321861e-01 4.93269065e-01 4.93273359e-01 4.93330090e-01
 4.93430549e-01 4.93575274e-01 4.93760699e-01 4.93990142e-01
 4.94262672e-01 4.94582064e-01 4.94947731e-01 4.95361652e-01
 4.95821477e-01 4.96325147e-01 4.96866559e-01 4.97437401e-01
 4.98025989e-01 4.98615762e-01 4.99188014e-01 4.99716591e-01
 5.00175190e-01 5.00528036e-01 5.00742228e-01 5.00774480e-01
 5.00588742e-01 5.00139270e-01 4.99393599e-01 4.98312083e-01
 4.96876327e-01 4.95064818e-01 4.92887106e-01 4.90354317e-01
 4.87519432e-01 4.84440731e-01 4.81228032e-01 4.77997128e-01
 4.74920356e-01 4.72171527e-01 4.69977405e-01 4.68555742e-01
 4.68160752e-01 4.69025033e-01 4.71384281e-01 4.75439300e-01
 4.81346374e-01 4.89197808e-01 4.98978152e-01 5.10541299e-01
 5.23542597e-01 5.37408081e-01 5.51288727e-01 5.64090075e-01
 5.74568927e-01 5.81547619e-01 5.84227793e-01 5.82523309e-01
 5.77341938e-01 5.70660459e-01 5.65450355e-01 5.65446280e-01]",[],0.6562580801163486,"[9.99140044e-12 9.41268179e-04 6.98113905e-03 2.27541965e-02
 5.08840334e-02 9.10834974e-02 1.40502190e-01 1.94822453e-01
 2.49481220e-01 3.00632198e-01 3.45612528e-01 3.83042876e-01
 4.12608000e-01 4.34794742e-01 4.50550016e-01 4.61072416e-01
 4.67582845e-01 4.71244539e-01 4.73047311e-01 4.73811490e-01
 4.74141343e-01 4.74470196e-01 4.75050079e-01 4.76011014e-01
 4.77365953e-01 4.79066526e-01 4.81010692e-01 4.83084321e-01
 4.85166289e-01 4.87151694e-01 4.88954638e-01 4.90513743e-01
 4.91795475e-01 4.92785459e-01 4.93495209e-01 4.93943857e-01
 4.94169748e-01 4.94207054e-01 4.94102085e-01 4.93888360e-01
 4.93606358e-01 4.93279409e-01 4.92935147e-01 4.92583532e-01
 4.92238260e-01 4.91897537e-01 4.91563965e-01 4.91228365e-01
 4.90886947e-01 4.90528493e-01 4.90147729e-01 4.89736411e-01
 4.89291742e-01 4.88812151e-01 4.88299515e-01 4.87760456e-01
 4.87201245e-01 4.86635186e-01 4.86069613e-01 4.85519348e-01
 4.84986226e-01 4.84477922e-01 4.83981792e-01 4.83487872e-01
 4.82960116e-01 4.82362380e-01 4.81630968e-01 4.80702839e-01
 4.79493522e-01 4.77927042e-01 4.75922793e-01 4.73425954e-01
 4.70405734e-01 4.66882963e-01 4.62939602e-01 4.58738096e-01
 4.54536577e-01 4.50695614e-01 4.47684398e-01 4.46077226e-01
 4.46526856e-01 4.49759207e-01 4.56496445e-01 4.67442917e-01
 4.83161942e-01 5.04026997e-01 5.30053164e-01 5.60797970e-01
 5.95163380e-01 6.31302500e-01 6.66539747e-01 6.97531517e-01
 7.20652008e-01 7.32727678e-01 7.31988591e-01 7.19009875e-01
 6.97329424e-01 6.73440839e-01 6.56262938e-01 6.56258080e-01]",[],0.34754659886407285,"[1.00073167e-11 9.42787258e-04 7.00742346e-03 2.29128180e-02
 5.14582250e-02 9.26014423e-02 1.43753972e-01 2.00798404e-01
 2.59268690e-01 3.15270312e-01 3.65970908e-01 4.09697957e-01
 4.45784035e-01 4.74309629e-01 4.95837671e-01 5.11201936e-01
 5.21347315e-01 5.27233335e-01 5.29767020e-01 5.29773613e-01
 5.27973736e-01 5.24981569e-01 5.21300721e-01 5.17332906e-01
 5.13383354e-01 5.09673173e-01 5.06350169e-01 5.03500931e-01
 5.01163899e-01 4.99338628e-01 4.97998670e-01 4.97096991e-01
 4.96577144e-01 4.96375126e-01 4.96428124e-01 4.96673798e-01
 4.97056494e-01 4.97525062e-01 4.98036846e-01 4.98554925e-01
 4.99050424e-01 4.99499753e-01 4.99885859e-01 5.00195734e-01
 5.00421195e-01 5.00556718e-01 5.00600232e-01 5.00551189e-01
 5.00411744e-01 5.00184899e-01 4.99876301e-01 4.99492314e-01
 4.99042482e-01 4.98537465e-01 4.97992011e-01 4.97422800e-01
 4.96851558e-01 4.96302936e-01 4.95807221e-01 4.95398435e-01
 4.95115947e-01 4.95002987e-01 4.95106404e-01 4.95475728e-01
 4.96160422e-01 4.97209512e-01 4.98665888e-01 5.00566526e-01
 5.02933662e-01 5.05775815e-01 5.09076000e-01 5.12794190e-01
 5.16853262e-01 5.21143887e-01 5.25510318e-01 5.29757612e-01
 5.33642939e-01 5.36880685e-01 5.39151121e-01 5.40091271e-01
 5.39337816e-01 5.36491773e-01 5.31197454e-01 5.23100219e-01
 5.11936140e-01 4.97523583e-01 4.79858471e-01 4.59158498e-01
 4.35976447e-01 4.11267260e-01 3.86459453e-01 3.63399728e-01
 3.44183787e-01 3.30763772e-01 3.24435662e-01 3.25264082e-01
 3.31717956e-01 3.40621336e-01 3.47548656e-01 3.47546599e-01]",[],0.4268659522951061,"[1.00029716e-11 9.42367594e-04 7.00403730e-03 2.29018430e-02
 5.14363058e-02 9.25762241e-02 1.43752916e-01 2.00879670e-01
 2.59519149e-01 3.15805348e-01 3.66917725e-01 4.11190512e-01
 4.47941288e-01 4.77235220e-01 4.99599837e-01 5.15840386e-01
 5.26857044e-01 5.33577447e-01 5.36864750e-01 5.37517926e-01
 5.36222350e-01 5.33578132e-01 5.30066606e-01 5.26090425e-01
 5.21946055e-01 5.17869623e-01 5.14011327e-01 5.10483420e-01
 5.07334210e-01 5.04595115e-01 5.02253335e-01 5.00295598e-01
 4.98679900e-01 4.97374420e-01 4.96329549e-01 4.95511234e-01
 4.94874657e-01 4.94391959e-01 4.94028586e-01 4.93765831e-01
 4.93580380e-01 4.93462375e-01 4.93398257e-01 4.93385117e-01
 4.93416646e-01 4.93494444e-01 4.93616784e-01 4.93787353e-01
 4.94006555e-01 4.94277926e-01 4.94601864e-01 4.94979675e-01
 4.95409864e-01 4.95889524e-01 4.96413573e-01 4.96973033e-01
 4.97557787e-01 4.98151263e-01 4.98737338e-01 4.99291087e-01
 4.99790331e-01 5.00202392e-01 5.00500518e-01 5.00646882e-01
 5.00613822e-01 5.00363463e-01 4.99873538e-01 4.99113780e-01
 4.98076161e-01 4.96747597e-01 4.95144599e-01 4.93281063e-01
 4.91207354e-01 4.88971313e-01 4.86661506e-01 4.84359544e-01
 4.82186465e-01 4.80245247e-01 4.78669236e-01 4.77555271e-01
 4.77011859e-01 4.77091031e-01 4.77825224e-01 4.79178102e-01
 4.81056561e-01 4.83291749e-01 4.85633108e-01 4.87753080e-01
 4.89247238e-01 4.89663605e-01 4.88540851e-01 4.85477225e-01
 4.80224016e-01 4.72776290e-01 4.63463687e-01 4.52970114e-01
 4.42347613e-01 4.33002421e-01 4.26870096e-01 4.26865952e-01]",[],0.521293065214351,"[9.99066887e-12 9.41198830e-04 6.97957175e-03 2.27438538e-02
 5.08449806e-02 9.09774190e-02 1.40270633e-01 1.94390576e-01
 2.48765712e-01 2.99551872e-01 3.44098505e-01 3.81047510e-01
 4.10110465e-01 4.31803944e-01 4.47103817e-01 4.57234447e-01
 4.63436776e-01 4.66886983e-01 4.68580127e-01 4.69334039e-01
 4.69744156e-01 4.70229460e-01 4.71024855e-01 4.72241211e-01
 4.73873401e-01 4.75855885e-01 4.78073203e-01 4.80400109e-01
 4.82709086e-01 4.84890991e-01 4.86859953e-01 4.88555686e-01
 4.89948771e-01 4.91028721e-01 4.91812555e-01 4.92323713e-01
 4.92605324e-01 4.92694746e-01 4.92641240e-01 4.92479825e-01
 4.92251932e-01 4.91980933e-01 4.91693897e-01 4.91400030e-01
 4.91111713e-01 4.90826360e-01 4.90545232e-01 4.90258938e-01
 4.89962812e-01 4.89646316e-01 4.89303918e-01 4.88928886e-01
 4.88518572e-01 4.88073286e-01 4.87594886e-01 4.87091401e-01
 4.86568069e-01 4.86038013e-01 4.85505557e-01 4.84982637e-01
 4.84465368e-01 4.83955158e-01 4.83430918e-01 4.82873416e-01
 4.82236721e-01 4.81474424e-01 4.80514511e-01 4.79286487e-01
 4.77703728e-01 4.75690590e-01 4.73175456e-01 4.70115848e-01
 4.66503834e-01 4.62384774e-01 4.57873857e-01 4.53162150e-01
 4.48537468e-01 4.44373061e-01 4.41137844e-01 4.39370651e-01
 4.39657875e-01 4.42604557e-01 4.48764699e-01 4.58610494e-01
 4.72422592e-01 4.90243744e-01 5.11741446e-01 5.36143241e-01
 5.62105572e-01 5.87693349e-01 6.10395866e-01 6.27353665e-01
 6.35774175e-01 6.33583470e-01 6.20190742e-01 5.97132900e-01
 5.68412842e-01 5.40360358e-01 5.21298190e-01 5.21293065e-01]",[],"{""qubits"": 6, ""target_qubits"": [4, 5, 6], ""T"": 0.5, ""d"": 1, ""steps"": 100, ""FFT"": false, ""fft_window"": null, ""REG_PULSE"": true, ""MAX_SLOPE"": 0.05, ""GUESS_OPT_STEPS"": null, ""GUESS_SIZE"": null, ""T2"": 1.8, ""METHOD"": ""S"", ""diff_factor"": 1, ""diff_target"": null, ""LR"": 1.0, ""OPT_LIM"": 0.0001, ""OPT_STEPS"": 1000, ""plot_res"": null, ""CUSTOM_splitting"": 0.6283185307000001, ""CUSTOM_fine_splitting"": 13.823007675400001, ""CUSTOM_ground_splitting"": 0.0, ""omega_drive"": 0, ""CUSTOM_n"": 1, ""CUSTOM_pulse_reg"": 0.001, ""CUSTOM_B"": 1.0}","[2.97808959 2.98301622 2.98795857 2.99241969 2.99593285 2.99810672
 2.99866489 2.99747557 2.99456857 2.99013735 2.98452575 2.97819994
 2.97170797 2.96563029 2.9605257  2.95687764 2.95504593 2.95522878
 2.95743879 2.96149592 2.96703829 2.97355068 2.98040839 2.98693279
 2.99245389 2.99637396 2.9982265  2.99772466 2.99479422 2.9895877
 2.98247736 2.97402735 2.96494673 2.95602735 2.94807175 2.94181772
 2.93786636 2.93662069 2.93824077 2.94262021 2.94938702 2.95792942
 2.96744521 2.97701066 2.98566335 2.9924914  2.99672113 2.99779484
 2.99543093 2.98966026 2.98083447 2.96960442 2.9568698  2.94370356
 2.93125736 2.92065619 2.9128917  2.90872406 2.90860195 2.91260874
 2.92044087 2.93142169 2.94455066 2.95858469 2.97214529 2.98384233
 2.99240367 2.9967987  2.99634407 2.99078113 2.9803167  2.96562213
 2.94778896 2.92824373 2.90862827 2.89065516 2.87595087 2.86590064
 2.86150947 2.86329287 2.87120849 2.8846368  2.90241439 2.92291904
 2.94420081 2.96414885 2.98068011 2.99193332 2.99645074 2.99333036
 2.98233326 2.96393459 2.93931086 2.91026219 2.8790739  2.84832742
 2.82067574 2.79860244 2.78418557 2.77888812 2.78339543 2.79751638
 2.82015999 2.84939324 2.88257799 2.91657842 2.94802321 2.97360109
 2.99036458 2.9960149  2.98914136 2.96939172 2.9375549  2.8955448
 2.84628201 2.7934794  2.74134639 2.69423462 2.65625387 2.63089121
 2.62066743 2.62686293 2.64934075 2.68648689 2.73527871 2.79148129
 2.84996048 2.90509052 2.95122481 2.98319146 2.9967715  2.98911691
 2.95906945 2.90734757 2.83657928 2.75117069 2.65701411 2.56105336
 2.47073723 2.39340293 2.33563926 2.30268318 2.29790298 2.32241615
 2.3748806  2.45148505 2.54614814 2.65091914 2.75655518 2.85323429
 2.93135032 2.98232652 2.99938046 2.97817423 2.9172907  2.81848873
 2.68670681 2.52980407 2.35804935 2.18338997 2.01855145 1.87603544
 1.767094   1.70076345 1.68303895 1.71626293 1.79878515 1.92493264
 2.08530333 2.26737164 2.45636853 2.63637456 2.79154564 2.90737717
 2.97190635 2.97675404 2.91791715 2.79623986 2.61751563 2.39219987
 2.13474392 1.86259164 1.59490808 1.3511331  1.14946965 1.00542455
 0.9305188  0.93127422 1.00856403 1.15738848 1.36710451 1.62210316
 1.90289272 2.18751283 2.45317619 2.67801472 2.84279552 2.93247134
 2.9374404  2.85441058 2.68679166 2.44457505 2.14369981 1.80494412
 1.45241933 1.11177638 0.80825925 0.5647541  0.39998624 0.32700775
 0.35209865 0.47417377 0.68474975 0.96848358 1.30424944 1.66667824
 2.0280469  2.36037556 2.63757261 2.83746179 2.94353227 2.94627268
 2.84398045 2.64297749 2.35720902 2.00724977 1.61878843 1.22070274
 0.84287029 0.51388243 0.25883759 0.09738583 0.04217826 0.09784482
 0.26058365 0.51839841 0.85196972 1.23609726 1.64160451 2.03756113
 2.39365261 2.68251422 2.88184808 2.97615823 2.95796745 2.82841914
 2.59721532 2.28189301 1.90649286 1.49972137 1.09274777 0.71680555
 0.400784   0.16899679 0.03930073 0.02171143 0.11762369 0.31969795
 0.612422   0.97330506 1.37461169 1.78550131 2.17440742 2.51147197
 2.77084617 2.93267959 2.98464371 2.92287243 2.7522476  2.4860086
 2.14471758 1.7546618  1.34581826 0.94953927 0.5961388  0.31256671
 0.12035029 0.03396131 0.05973303 0.19540839 0.43035143 0.74640243
 1.11930726 1.52060758 1.91984348 2.28689663 2.59429242 2.81928399
 2.94555903 2.96444049 2.87549285 2.68649171 2.41276456 2.07595862
 1.70233592 1.32073087 0.96033085 0.64845192 0.40848093 0.25814
 0.20820345 0.26176017 0.41407201 0.65303133 0.96017554 1.31217305
 1.68266078 2.04428709 2.37080069 2.63902459 2.83056547 2.93313137
 2.94136292 2.8571222  2.68922608 2.45265396 2.16729979 1.8563723
 1.54457237 1.25619169 1.01327994 0.83401971 0.73142977 0.71248945
 0.77774244 0.92140033 1.13192696 1.39304809 1.6850991  1.98659944
 2.27592745 2.5329642  2.74058099 2.88585955 2.96095812 2.96356569
 2.89692023 2.76940133 2.59374011 2.38591808 2.16384877 1.94595022
 1.74972197 1.59043649 1.48004302 1.4263623  1.43262581 1.49738416
 1.61478039 1.77515483 1.96592371 2.17265389 2.3802432  2.57411068
 2.74130319 2.87143461 2.95739004 2.99574806 2.98689794 2.93485394
 2.84679242 2.73235859 2.6028066  2.47004722 2.34568225 2.24010293
 2.16172146 2.11639161 2.10705732 2.13364798 2.193219   2.28031638
 2.38752681 2.50616133 2.62701201 2.74111734 2.84047413 2.91864037
 2.97118477 2.99595285 2.99313568 2.9651442  2.91630767 2.85242851
 2.78023635 2.70679058 2.6388828  2.58248854 2.54231151 2.52145406
 2.52123566 2.54116818 2.57908291 2.63139235 2.69345884 2.76003439
 2.82573193 2.88548677 2.93496996 2.97092077 2.99137377 2.99576575
 2.98491893 2.96090691 2.92682013 2.88645502 2.84395668 2.80344754
 2.76867451 2.74270388 2.72768815 2.72472185 2.73379469 2.7538423
 2.78288575 2.81824419 2.85679917 2.89528553 2.93058258 2.95998031
 2.98139844 2.99354139 2.99597813 2.98914318 2.9742618  2.95320907
 2.9283178  2.90215426 2.87728251 2.85603865 2.84033429 2.83150539
 2.8302179  2.83643642 2.84945602 2.8679919  2.89031694 2.91443286
 2.93825874 2.95981942 2.97741725 2.9897724  2.9961207  2.99626175
 2.99055503 2.97986625 2.96547063 2.94892328 2.93190945 2.91608882
 2.90294786 2.89367316 2.88905634 2.88943779 2.89469294 2.90426072
 2.91721015 2.93233766 2.94828551 2.96366965 2.97720542 2.9878199
 2.99474102 2.99755662 2.99623882 2.99113298 2.98291337 2.97251067
 2.96101886 2.94959056 2.93933069 2.93119809 2.92592372 2.92395226
 2.92541162 2.9301122  2.93757487 2.94708436 2.95776222 2.96865216
 2.97880961 2.98738732 2.9937092  2.99732626 2.99805    2.99596106
 2.99139309 2.98489412 2.97716958 2.96901292 2.96123038 2.95456694
 2.94964033 2.94688861 2.94653593 2.94857882 2.95279371 2.95876435
 2.96592594 2.97362157]","[2.97366713 2.9780991  2.98302626 2.98796813 2.99242781 2.99593864
 2.99810952 2.99866427 2.99747144 2.99456114 2.99012717 2.98451364
 2.97818693 2.9716952  2.96561893 2.96051681 2.95687206 2.95504425
 2.9552312  2.95744516 2.96150567 2.96705054 2.97356428 2.980422
 2.98694505 2.99246351 2.99637986 2.99822791 2.99772121 2.99478599
 2.98957522 2.98246158 2.97400956 2.96492846 2.95601022 2.94805732
 2.94180734 2.93786107 2.93662106 2.93824685 2.94263153 2.94940257
 2.95794777 2.96746461 2.9770292  2.98567912 2.99250268 2.99672657
 2.99779359 2.99542272 2.98964548 2.98081414 2.96958012 2.95684352
 2.94367756 2.93123395 2.92063753 2.91287957 2.90871969 2.90860588
 2.91262075 2.92045998 2.93144619 2.94457827 2.95861275 2.97217099
 2.98386297 2.99241691 2.99680279 2.99633805 2.99076494 2.98029123
 2.96558917 2.94775105 2.928204   2.90859012 2.89062198 2.87592572
 2.86588595 2.86150679 2.86330269 2.87123014 2.88466849 2.90245328
 2.92296151 2.94424275 2.964186   2.98070845 2.99194948 2.99645232
 2.99331618 2.98230357 2.96389106 2.93925648 2.91020112 2.87901108
 2.84826816 2.82062525 2.79856536 2.7841655  2.77888726 2.7834143
 2.79755367 2.82021266 2.84945665 2.88264628 2.91664499 2.94808129
 2.9736443  2.9903876  2.99601395 2.98911464 2.96933965 2.93748021
 2.89545239 2.84617859 2.79337301 2.74124572 2.69414826 2.65618953
 2.630855   2.62066324 2.62689193 2.64940119 2.68657408 2.73538531
 2.7915978  2.85007599 2.9051936  2.95130447 2.98323817 2.99677806
 2.98907925 2.95898708 2.90722386 2.83642133 2.75098894 2.65682155
 2.56086458 2.47056724 2.39326586 2.33554713 2.30264473 2.2979228
 2.32249405 2.37501139 2.45165872 2.5463505  2.65113278 2.75676077
 2.85341213 2.93148196 2.98239637 2.99937721 2.97809201 2.91712981
 2.81825592 2.68641501 2.52947162 2.35769875 2.18304622 2.01824012
 1.8757806  1.76691626 1.70067807 1.68305443 1.71638    1.79899645
 1.92522293 2.08565043 2.26774791 2.45674289 2.63671483 2.79182105
 2.90756088 2.97197771 2.97670047 2.91773539 2.7959366  2.61710729
 2.39171164 2.13420808 1.86204528 1.5943903  1.35068204 1.14911948
 1.00520267 0.93044354 0.93135311 1.00879292 1.15775158 1.36757525
 1.62264601 1.90346571 2.18807064 2.45367357 2.67841003 2.84305401
 2.932568   2.93736215 2.8541575  2.68637729 2.44402563 2.14305251
 1.8042444  1.45171757 1.11112415 0.8077053  0.5643406  0.3997454
 0.32695917 0.35224763 0.47451062 0.68525037 0.96911105 1.30495667
 1.66741147 2.0287497  2.36099315 2.6380561  2.83777197 2.94364277
 2.94617214 2.84367353 2.64248471 2.35656534 2.00650203 1.61799192
 1.21991697 0.84215448 0.51329097 0.25841581 0.09716645 0.0421788
 0.09806612 0.26100969 0.51899748 0.85269672 1.23689711 1.64241632
 2.03832286 2.39430584 2.68300864 2.8821454  2.9762352  2.95781765
 2.82805357 2.59666159 2.28119324 1.90570049 1.49889706 1.09195474
 0.7161047  0.40022922 0.16863079 0.03915174 0.02179098 0.11792576
 0.32019936 0.61308425 0.97407725 1.37543447 1.78631146 2.17514272
 2.51207599 2.77127262 2.9328959  2.9846335  2.92263675 2.75180482
 2.48539299 2.14397661 1.75385248 1.34500272 0.94877998 0.59549377
 0.31208501 0.12006837 0.03390023 0.05989689 0.19578408 0.43090977
 0.74710043 1.12009149 1.52141836 1.92061946 2.28757946 2.59483125
 2.81963929 2.94570551 2.96436896 2.87521078 2.68602255 2.41214579
 2.07523879 1.70157086 1.31997935 0.95965008 0.64789326 0.40808598
 0.25793759 0.20820756 0.2619691  0.41446863 0.65358465 0.96084318
 1.31290466 1.68340195 2.04498352 2.37140234 2.63948939 2.83086238
 2.93324256 2.94128491 2.85686586 2.68881557 2.45212463 2.16669535
 1.85574128 1.54396439 1.25565369 1.01285262 0.83373463 0.73130715
 0.71253683 0.77795445 0.92175936 1.1324048  1.39360829 1.68569996
 1.98719731 2.27648004 2.53343383 2.74093726 2.88608149 2.96103551
 2.96349953 2.89672236 2.76909319 2.59335082 2.38548201 2.16340273
 1.94553059 1.74936193 1.59016358 1.47987719 1.42631472 1.4326982
 1.49756906 1.61506202 1.77551061 1.96632624 2.17307323 2.38064928
 2.57447564 2.74160339 2.87165238 2.95751476 2.99577671 2.98683505
 2.93471091 2.84658633 2.73211065 2.6025403  2.46978639 2.34544916
 2.23991662 2.16159633 2.11633654 2.10707517 2.13373564 2.19336791
 2.28051346 2.38775571 2.5064039  2.62724982 2.74133321 2.84065344
 2.91877214 2.97126235 2.9959743  2.99310367 2.96506561 2.9161928
 2.85229008 2.78008836 2.70664708 2.63875671 2.58239068 2.54224977
 2.52143289 2.52125587 2.54122704 2.57917456 2.63150843 2.69358929
 2.76016843 2.82585896 2.88559727 2.93505625 2.97097757 2.99139853
 2.99575877 2.98488317 2.96084762 2.92674432 2.88637075 2.84387234
 2.80337111 2.7686129  2.74266236 2.72767002 2.72472816 2.73382435
 2.7538922  2.78295115 2.81831919 2.85687729 2.89536029 2.93064808
 2.96003168 2.98143227 2.99355594 2.99597343 2.98912092 2.97422514
 2.95316228 2.92826587 2.9021024  2.87723568 2.85600116 2.84030944
 2.83149518 2.83022297 2.83645601 2.8494881  2.8680334  2.89036408
 2.91448149 2.93830474 2.95985907 2.97744753 2.98979125 2.99612715
 2.99625596 2.99053826 2.97984067 2.96543913 2.94888915 2.93187608
 2.91605941 2.90292512 2.89365909 2.88905208 2.88944355 2.89470803
 2.90428361 2.91723866 2.93236921 2.9483173  2.96369896 2.97722988
 2.98783763 2.99475083 2.99755806 2.99623221 2.99111937 2.9828944
 2.97248839 2.96099556 2.94956852 2.93931202 2.93118449 2.92591638
 2.92395176 2.9254179  2.93012457 2.93759212 2.94710486 2.95778412
 2.96867351 2.9788286  2.9874024  2.99371924 2.99733061 2.99804856
 2.99595424 2.99138181 2.98487964 2.97715342 2.96899672 2.96121571
 2.95455518 2.94963254 2.94688547 2.94653766 2.94858519 2.95280407
 2.95877769 2.96594103]","[-25.         -24.8997996  -24.7995992  -24.6993988  -24.5991984
 -24.498998   -24.3987976  -24.29859719 -24.19839679 -24.09819639
 -23.99799599 -23.89779559 -23.79759519 -23.69739479 -23.59719439
 -23.49699399 -23.39679359 -23.29659319 -23.19639279 -23.09619238
 -22.99599198 -22.89579158 -22.79559118 -22.69539078 -22.59519038
 -22.49498998 -22.39478958 -22.29458918 -22.19438878 -22.09418838
 -21.99398798 -21.89378758 -21.79358717 -21.69338677 -21.59318637
 -21.49298597 -21.39278557 -21.29258517 -21.19238477 -21.09218437
 -20.99198397 -20.89178357 -20.79158317 -20.69138277 -20.59118236
 -20.49098196 -20.39078156 -20.29058116 -20.19038076 -20.09018036
 -19.98997996 -19.88977956 -19.78957916 -19.68937876 -19.58917836
 -19.48897796 -19.38877756 -19.28857715 -19.18837675 -19.08817635
 -18.98797595 -18.88777555 -18.78757515 -18.68737475 -18.58717435
 -18.48697395 -18.38677355 -18.28657315 -18.18637275 -18.08617234
 -17.98597194 -17.88577154 -17.78557114 -17.68537074 -17.58517034
 -17.48496994 -17.38476954 -17.28456914 -17.18436874 -17.08416834
 -16.98396794 -16.88376754 -16.78356713 -16.68336673 -16.58316633
 -16.48296593 -16.38276553 -16.28256513 -16.18236473 -16.08216433
 -15.98196393 -15.88176353 -15.78156313 -15.68136273 -15.58116232
 -15.48096192 -15.38076152 -15.28056112 -15.18036072 -15.08016032
 -14.97995992 -14.87975952 -14.77955912 -14.67935872 -14.57915832
 -14.47895792 -14.37875752 -14.27855711 -14.17835671 -14.07815631
 -13.97795591 -13.87775551 -13.77755511 -13.67735471 -13.57715431
 -13.47695391 -13.37675351 -13.27655311 -13.17635271 -13.0761523
 -12.9759519  -12.8757515  -12.7755511  -12.6753507  -12.5751503
 -12.4749499  -12.3747495  -12.2745491  -12.1743487  -12.0741483
 -11.9739479  -11.87374749 -11.77354709 -11.67334669 -11.57314629
 -11.47294589 -11.37274549 -11.27254509 -11.17234469 -11.07214429
 -10.97194389 -10.87174349 -10.77154309 -10.67134269 -10.57114228
 -10.47094188 -10.37074148 -10.27054108 -10.17034068 -10.07014028
  -9.96993988  -9.86973948  -9.76953908  -9.66933868  -9.56913828
  -9.46893788  -9.36873747  -9.26853707  -9.16833667  -9.06813627
  -8.96793587  -8.86773547  -8.76753507  -8.66733467  -8.56713427
  -8.46693387  -8.36673347  -8.26653307  -8.16633267  -8.06613226
  -7.96593186  -7.86573146  -7.76553106  -7.66533066  -7.56513026
  -7.46492986  -7.36472946  -7.26452906  -7.16432866  -7.06412826
  -6.96392786  -6.86372745  -6.76352705  -6.66332665  -6.56312625
  -6.46292585  -6.36272545  -6.26252505  -6.16232465  -6.06212425
  -5.96192385  -5.86172345  -5.76152305  -5.66132265  -5.56112224
  -5.46092184  -5.36072144  -5.26052104  -5.16032064  -5.06012024
